;PYCAM-META-DATA: Filename: /home/memeruiz/machining/cnc_test1.stl
;PYCAM-META-DATA: Timestamp: 2017-01-23 12:03:58.191588
;PYCAM-META-DATA: Version: 0.5.1
;Estimated machine time: 87 minutes
G40 (disable tool radius compensation)
G49 (disable tool length compensation)
G80 (cancel modal motion)
G54 (select coordinate system 1)
G90 (disable incremental moves)
G21 (metric)
G61 (exact path mode)
F200.00000
S1000.00000
;PYCAM_TOOLPATH_SETTINGS: START
;[Bounds]
;maxz = 0.0
;maxx = 20.0
;maxy = 20.0
;minx = 0.0
;miny = 0.0
;minz = -10.0
;
;[Tool]
;torus_radius = 0.25
;speed = 1000.0
;shape = CylindricalCutter
;tool_radius = 4.0
;feedrate = 200.0
;
;[Process]
;engrave_offset = 0.0
;step_down = 1.0
;generator = PushCutter
;postprocessor = SimpleCutter
;milling_style = ignore
;material_allowance = 0.1
;pocketing_type = none
;path_direction = x
;
;PYCAM_TOOLPATH_SETTINGS: END
T1 M6
G0 Z25.0000000
M3 (start spindle)
G04 P3 (wait for 3 seconds)
 X0.000000 Y0.000000
G1 Z0E-7
 X20.000000
 Y2.857143
 X18.495449
G0 Z25.0000000
 X1.504551
G1 Z0E-7
 X0.000000
 Y5.714286
 X0.900000
G0 Z25.0000000
 X19.100000
 X0.0 Y0.0
G0 Z25.0000000
M5 (stop spindle)
G04 P3 (wait for 3 seconds)
G0 Z25.0000000
M2 (end program)
