;PYCAM-META-DATA: Filename: /home/memeruiz/machining/cnc_test1.stl
;PYCAM-META-DATA: Timestamp: 2017-01-23 12:03:58.191588
;PYCAM-META-DATA: Version: 0.5.1
;Estimated machine time: 87 minutes
G40 (disable tool radius compensation)
G49 (disable tool length compensation)
G80 (cancel modal motion)
G54 (select coordinate system 1)
G90 (disable incremental moves)
G21 (metric)
G61 (exact path mode)
F200.00000
S1000.00000
;PYCAM_TOOLPATH_SETTINGS: START
;[Bounds]
;maxz = 0.0
;maxx = 20.0
;maxy = 20.0
;minx = 0.0
;miny = 0.0
;minz = -10.0
;
;[Tool]
;torus_radius = 0.25
;speed = 1000.0
;shape = CylindricalCutter
;tool_radius = 4.0
;feedrate = 200.0
;
;[Process]
;engrave_offset = 0.0
;step_down = 1.0
;generator = PushCutter
;postprocessor = SimpleCutter
;milling_style = ignore
;material_allowance = 0.1
;pocketing_type = none
;path_direction = x
;
;PYCAM_TOOLPATH_SETTINGS: END
T1 M6
G0 Z25.0000000
M3 (start spindle)
G04 P3 (wait for 3 seconds)
 X0.000000 Y0.000000
G1 Z0E-7
 X20.000000
 Y2.857143
 X18.495449
G0 Z25.0000000
 X1.504551
G1 Z0E-7
 X0.000000
 Y5.714286
 X0.900000
G0 Z25.0000000
 X19.100000
G1 Z0E-7
 X20.000000
 Y8.571429
 X19.100000
G0 Z25.0000000
 X0.900000
G1 Z0E-7
 X0.000000
 Y11.428571
 X0.900000
G0 Z25.0000000
 X19.100000
G1 Z0E-7
 X20.000000
 Y14.285714
 X19.100000
G0 Z25.0000000
 X0.900000
G1 Z0E-7
 X0.000000
 Y17.142857
 X1.504551
G0 Z25.0000000
 X18.495449
G1 Z0E-7
 X20.000000
 Y20.000000
 X0.000000
 Z-1.0000000
 X20.000000
 Y17.142857
 X18.495449
G0 Z25.0000000
 X1.504551
G1 Z-1.0000000
 X0.000000
 Y14.285714
 X0.900000
G0 Z25.0000000
 X19.100000
G1 Z-1.0000000
 X20.000000
 Y11.428571
 X19.100000
G0 Z25.0000000
 X0.900000
G1 Z-1.0000000
 X0.000000
 Y8.571429
 X0.900000
G0 Z25.0000000
 X19.100000
G1 Z-1.0000000
 X20.000000
 Y5.714286
 X19.100000
G0 Z25.0000000
 X0.900000
G1 Z-1.0000000
 X0.000000
 Y2.857143
 X1.504551
G0 Z25.0000000
 X18.495449
G1 Z-1.0000000
 X20.000000
 Y0.000000
 X0.000000
 Z-2.0000000
 X20.000000
 Y2.857143
 X18.495449
G0 Z25.0000000
 X1.504551
G1 Z-2.0000000
 X0.000000
 Y5.714286
 X0.900000
G0 Z25.0000000
 X19.100000
G1 Z-2.0000000
 X20.000000
 Y8.571429
 X19.100000
G0 Z25.0000000
 X0.900000
G1 Z-2.0000000
 X0.000000
 Y11.428571
 X0.900000
G0 Z25.0000000
 X19.100000
G1 Z-2.0000000
 X20.000000
 Y14.285714
 X19.100000
G0 Z25.0000000
 X0.900000
G1 Z-2.0000000
 X0.000000
 Y17.142857
 X1.504551
G0 Z25.0000000
 X18.495449
G1 Z-2.0000000
 X20.000000
 Y20.000000
 X0.000000
 Z-3.0000000
 X20.000000
 Y17.142857
 X18.495449
G0 Z25.0000000
 X1.504551
G1 Z-3.0000000
 X0.000000
 Y14.285714
 X0.900000
G0 Z25.0000000
 X19.100000
G1 Z-3.0000000
 X20.000000
 Y11.428571
 X19.100000
G0 Z25.0000000
 X0.900000
G1 Z-3.0000000
 X0.000000
 Y8.571429
 X0.900000
G0 Z25.0000000
 X19.100000
G1 Z-3.0000000
 X20.000000
 Y5.714286
 X19.100000
G0 Z25.0000000
 X0.900000
G1 Z-3.0000000
 X0.000000
 Y2.857143
 X1.504551
G0 Z25.0000000
 X18.495449
G1 Z-3.0000000
 X20.000000
 Y0.000000
 X0.000000
 Z-4.0000000
 X20.000000
 Y2.857143
 X18.495449
G0 Z25.0000000
 X1.504551
G1 Z-4.0000000
 X0.000000
 Y5.714286
 X0.900000
G0 Z25.0000000
 X19.100000
G1 Z-4.0000000
 X20.000000
 Y8.571429
 X19.100000
G0 Z25.0000000
 X0.900000
G1 Z-4.0000000
 X0.000000
 Y11.428571
 X0.900000
G0 Z25.0000000
 X19.100000
G1 Z-4.0000000
 X20.000000
 Y14.285714
 X19.100000
G0 Z25.0000000
 X0.900000
G1 Z-4.0000000
 X0.000000
 Y17.142857
 X1.504551
G0 Z25.0000000
 X18.495449
G1 Z-4.0000000
 X20.000000
 Y20.000000
 X0.000000
G0 Z25.0000000
M5 (stop spindle)
G04 P3 (wait for 3 seconds)
F200.00000
S1000.00000
;PYCAM_TOOLPATH_SETTINGS: START
;[Bounds]
;maxz = 0.0
;maxx = 20.0
;maxy = 20.0
;minx = 0.0
;miny = 0.0
;minz = -10.0
;
;[Tool]
;torus_radius = 0.25
;speed = 1000.0
;shape = CylindricalCutter
;tool_radius = 4.0
;feedrate = 200.0
;
;[Process]
;engrave_offset = 0.0
;step_down = 3.0
;generator = DropCutter
;postprocessor = PathAccumulator
;milling_style = conventional
;material_allowance = 2.77555756156e-17
;pocketing_type = none
;path_direction = x
;
;PYCAM_TOOLPATH_SETTINGS: END
G0 Z25.0000000
M3 (start spindle)
G04 P3 (wait for 3 seconds)
 X0.000000 Y0.000000
G1 Z-5.0000000
 X20.000000
G0 Z25.0000000
 X0.000000 Y2.857143
G1 Z-5.0000000
 X1.621094
 X1.623047 Z0E-7
 X18.375000
 X18.382812 Z-5.0000000
 X20.000000
G0 Z25.0000000
 X0.000000 Y5.714286
G1 Z-5.0000000
 X1.000000
 X1.015625 Z0E-7
 X19.000000
 Z-5.0000000
 X20.000000
G0 Z25.0000000
 X0.000000 Y8.571429
G1 Z-5.0000000
 X1.000000
 X1.015625 Z0E-7
 X19.000000
 Z-5.0000000
 X20.000000
G0 Z25.0000000
 X0.000000 Y11.428571
G1 Z-5.0000000
 X1.000000
 X1.015625 Z0E-7
 X19.000000
 Z-5.0000000
 X20.000000
G0 Z25.0000000
 X0.000000 Y14.285714
G1 Z-5.0000000
 X1.000000
 X1.015625 Z0E-7
 X19.000000
 Z-5.0000000
 X20.000000
G0 Z25.0000000
 X0.000000 Y17.142857
G1 Z-5.0000000
 X1.621094
 X1.623047 Z0E-7
 X18.375000
 X18.382812 Z-5.0000000
 X20.000000
G0 Z25.0000000
 X0.000000 Y20.000000
G1 Z-5.0000000
 X20.000000
G0 Z25.0000000
M5 (stop spindle)
G04 P3 (wait for 3 seconds)
F200.00000
S1000.00000
;PYCAM_TOOLPATH_SETTINGS: START
;[Bounds]
;maxz = 0.0
;maxx = 19.0
;maxy = 19.0
;minx = 1.0
;miny = 1.0
;minz = -10.0
;
;[Tool]
;torus_radius = 0.25
;speed = 1000.0
;shape = CylindricalCutter
;tool_radius = 1.0
;feedrate = 200.0
;
;[Process]
;engrave_offset = 0.0
;step_down = 0.5
;generator = ContourFollow
;postprocessor = SimpleCutter
;milling_style = conventional
;material_allowance = 0.0
;pocketing_type = none
;path_direction = x
;
;PYCAM_TOOLPATH_SETTINGS: END
T4 M6
G0 Z25.0000000
M3 (start spindle)
G04 P3 (wait for 3 seconds)
 X11.591009 Y11.209454
G1 Z0E-7
 X11.712447 Y11.030345
 X11.813809 Y10.839157
 X11.893905 Y10.638131
 X11.951797 Y10.429623
 X11.986806 Y10.216078
 X11.998521 Y10.000000
 X11.986806 Y9.783922
 X11.951797 Y9.570377
 X11.893905 Y9.361869
 X11.813809 Y9.160843
 X11.712447 Y8.969655
 X11.591009 Y8.790546
 X11.450917 Y8.625618
 X11.293815 Y8.476803
 X11.121544 Y8.345846
 X10.936124 Y8.234283
 X10.739729 Y8.143420
 X10.534661 Y8.074325
 X10.323325 Y8.027806
 X10.108198 Y8.004410
 X9.891802
 X9.676675 Y8.027806
 X9.465339 Y8.074325
 X9.260271 Y8.143420
 X9.063876 Y8.234283
 X8.878456 Y8.345846
 X8.706185 Y8.476803
 X8.549083 Y8.625618
 X8.408991 Y8.790546
 X8.287553 Y8.969655
 X8.186191 Y9.160843
 X8.106095 Y9.361869
 X8.048203 Y9.570377
 X8.013194 Y9.783922
 X8.001479 Y10.000000
 X8.013194 Y10.216078
 X8.048203 Y10.429623
 X8.106095 Y10.638131
 X8.186191 Y10.839157
 X8.287553 Y11.030345
 X8.408991 Y11.209454
 X8.549083 Y11.374382
 X8.706185 Y11.523197
 X8.878456 Y11.654154
 X9.063876 Y11.765717
 X9.260271 Y11.856580
 X9.465339 Y11.925675
 X9.676675 Y11.972194
 X9.891802 Y11.995590
 X10.108198
 X10.323325 Y11.972194
 X10.534661 Y11.925675
 X10.739729 Y11.856580
 X10.936124 Y11.765717
 X11.121544 Y11.654154
 X11.293815 Y11.523197
 X11.450917 Y11.374382
 X11.591009 Y11.209454
G0 Z25.0000000
 X16.000010 Y16.000010
G1 Z0E-7
 X3.999990
 Y3.999990
 X16.000010
 Y16.000010
G0 Z25.0000000
 X10.323235 Y11.972214
G1 Z-0.5000000
 X10.349684 Y11.966392
 X10.534661 Y11.925675
 X10.560237 Y11.917058
 X10.108198 Y11.995590
 X10.135029 Y11.992672
 X9.465249 Y11.925655
 X9.491697 Y11.931477
G0 Z25.0000000
 X10.739816 Y8.143450
G1 Z-0.5000000
 X10.714152 Y8.134802
 X10.534751 Y8.074345
 X10.508303 Y8.068523
 X9.676765 Y8.027786
 X9.650316 Y8.033608
 X9.891894 Y8.004400
 X9.864971 Y8.007328
G0 Z25.0000000
 X9.676675 Y11.972194
G1 Z-0.5000000
 X9.703507 Y11.975112
 X9.260271 Y11.856580
 X9.285848 Y11.865198
G0 Z25.0000000
 X11.801167 Y10.863002
G1 Z-0.5000000
 X11.813852 Y10.839076
 X11.450858 Y11.374452
 X11.468390 Y11.353812
 X11.590957 Y11.209530
 X11.606155 Y11.187115
 X10.739645 Y11.856619
 X10.764224 Y11.845247
 X10.108106 Y11.995600
 X10.323325 Y11.972194
 X10.534661 Y11.925675
 X10.560237 Y11.917058
 X10.739729 Y11.856580
 X10.936124 Y11.765717
 X10.959251 Y11.751803
 X11.121544 Y11.654154
 X11.293889 Y11.523141
 X9.891710 Y11.995590
 X10.108198
G0 Z25.0000000
 X11.986801 Y10.216171
G1 Z-0.5000000
 X11.988267 Y10.189128
 X11.951782 Y10.429714
 X11.956163 Y10.402990
 X11.893880 Y10.638220
 X11.901126 Y10.612125
 X11.956163 Y9.597010
 X11.951782 Y9.570286
 X11.988267 Y9.810872
 X11.986801 Y9.783829
 X11.893939 Y9.361955
 X11.883915 Y9.336796
G0 Z25.0000000
 X16.000010 Y14.000000
G1 Z-0.5000000
 Y15.000000
G0 Z25.0000000
 X11.606155 Y8.812885
G1 Z-0.5000000
 X11.590957 Y8.790470
 X11.813852 Y9.160924
 X11.801167 Y9.136998
 X11.450985 Y8.625682
 X11.431323 Y8.607057
 X11.293889 Y8.476859
 X11.272329 Y8.460470
 X10.936208 Y8.234321
 X10.911629 Y8.222950
G0 Z25.0000000
 X11.272329 Y11.539530
G1 Z-0.5000000
 X11.293815 Y11.523197
 X11.313409 Y11.504636
 X11.450917 Y11.374382
 X11.591009 Y11.209454
 X11.712447 Y11.030345
 X11.813809 Y10.839157
 X11.823798 Y10.814085
 X11.893905 Y10.638131
 X11.951797 Y10.429623
 X11.986806 Y10.216078
 X11.998521 Y10.000000
 X11.986806 Y9.783922
 X11.951797 Y9.570377
 X11.944577 Y9.544372
 X11.893905 Y9.361869
 X11.813809 Y9.160843
 X11.712447 Y8.969655
 X11.591009 Y8.790546
 X11.573536 Y8.769976
 X11.450917 Y8.625618
 X11.293815 Y8.476803
 X11.121544 Y8.345846
 X10.959251 Y8.248197
 X10.936124 Y8.234283
 X10.739729 Y8.143420
 X10.534661 Y8.074325
 X10.323325 Y8.027806
 X10.108198 Y8.004410
 X10.081208
G0 Z25.0000000
 X6.000000 Y16.000010
G1 Z-0.5000000
 X5.000000
G0 Z25.0000000
 X9.235776 Y11.845247
G1 Z-0.5000000
 X9.260271 Y11.856580
 X9.465339 Y11.925675
 X9.676675 Y11.972194
 X9.703507 Y11.975112
 X9.891802 Y11.995590
 X9.918792
 X8.878376 Y11.654106
 X9.063876 Y11.765717
 X9.260271 Y11.856580
 X8.531610 Y11.353812
 X8.549083 Y11.374382
 X8.568677 Y11.392943
 X8.274911 Y11.006500
 X8.287553 Y11.030345
 X8.302699 Y11.052684
 X8.098874 Y10.612125
 X8.106095 Y10.638131
 X8.186191 Y10.839157
 X8.287553 Y11.030345
 X8.408991 Y11.209454
 X8.549083 Y11.374382
 X8.706185 Y11.523197
 X8.856970 Y11.637821
 X8.878456 Y11.654154
 X8.901581 Y11.668068
G0 Z25.0000000
 X8.302699 Y8.947316
G1 Z-0.5000000
 X8.287553 Y8.969655
 X8.274911 Y8.993500
 X8.727671 Y8.460470
 X8.706111 Y8.476859
 X10.135029 Y8.007328
 X10.108198 Y8.004410
 X9.891802
 X9.676675 Y8.027806
 X9.465339 Y8.074325
 X9.260271 Y8.143420
 X9.235776 Y8.154753
G0 Z25.0000000
 X14.000000 Y3.999990
G1 Z-0.5000000
 X15.000000
G0 Z25.0000000
 X9.285848 Y8.134802
G1 Z-0.5000000
 X9.260271 Y8.143420
 X9.063876 Y8.234283
 X9.040749 Y8.248197
 X8.878456 Y8.345846
 X8.706185 Y8.476803
 X8.549083 Y8.625618
 X8.408991 Y8.790546
 X8.287553 Y8.969655
 X8.186191 Y9.160843
 X8.106095 Y9.361869
 X8.098874 Y9.387875
 X8.568677 Y8.607057
 X8.549083 Y8.625618
 X8.531610 Y8.646188
 X8.011733 Y10.189128
 X8.013194 Y10.216078
 X8.048203 Y10.429623
 X8.106095 Y10.638131
 X8.116085 Y10.663204
 X8.017561 Y9.757287
 X8.013179 Y9.784013
 X8.116085 Y9.336796
 X8.106095 Y9.361869
 X8.048203 Y9.570377
 X8.013194 Y9.783922
 X8.011733 Y9.810872
 X8.001479 Y10.000000
 X8.013194 Y10.216078
 X8.017561 Y10.242713
G0 Z25.0000000
 X3.999990 Y6.000000
G1 Z-0.5000000
 Y3.999990
 X16.000010
 Y16.000010
 X3.999990
 Y5.000000
G0 Z25.0000000
 X11.450858 Y11.374452
G1 Z-1.0000000
 X11.520963 Y11.291918
 X11.590957 Y11.209530
 X11.651728 Y11.119900
 X10.739645 Y11.856619
 X10.837926 Y11.811149
 X10.108106 Y11.995600
 X10.215761 Y11.983892
 X10.323235 Y11.972214
 X10.428993 Y11.948934
 X9.891710 Y11.995590
 X10.108198
 X10.323325 Y11.972194
 X10.534661 Y11.925675
 X10.637195 Y11.891128
 X10.739729 Y11.856580
 X10.936124 Y11.765717
 X11.028835 Y11.709936
 X11.121544 Y11.654154
 X11.293815 Y11.523197
 X11.372366 Y11.448790
 X9.676583 Y11.972184
 X9.891802 Y11.995590
 X10.000000
 X9.465249 Y11.925655
 X9.676675 Y11.972194
 X9.784239 Y11.983892
G0 Z25.0000000
 X11.986801 Y10.216171
G1 Z-1.0000000
 X11.992664 Y10.108039
 X11.951782 Y10.429714
 X11.969301 Y10.322851
 X11.813775 Y10.839243
 X11.853857 Y10.738645
 X11.992664 Y9.891961
 X11.986801 Y9.783829
 X11.969301 Y9.677149
 X11.951797 Y9.570377
 X11.922851 Y9.466124
G0 Z25.0000000
 X16.000010 Y13.000000
G1 Z-1.0000000
 Y15.000000
G0 Z25.0000000
 X11.893939 Y9.361955
G1 Z-1.0000000
 X11.853857 Y9.261355
G0 Z25.0000000
 X11.207680 Y11.588676
G1 Z-1.0000000
 X11.293815 Y11.523197
 X11.450917 Y11.374382
 X11.591009 Y11.209454
 X11.712447 Y11.030345
 X11.763128 Y10.934751
 X11.813809 Y10.839157
 X11.893905 Y10.638131
 X11.922851 Y10.533876
 X11.951797 Y10.429623
 X11.986806 Y10.216078
 X11.998521 Y10.000000
 X11.986806 Y9.783922
 X11.951797 Y9.570377
 X11.893905 Y9.361869
 X11.813809 Y9.160843
 X11.763128 Y9.065249
 X11.712447 Y8.969655
 X11.590957 Y8.790470
 X11.450985 Y8.625682
 X11.372366 Y8.551210
 X11.293889 Y8.476859
 X11.207680 Y8.411324
 X10.936208 Y8.234321
 X10.837926 Y8.188851
 X10.739816 Y8.143450
 X10.637195 Y8.108872
 X10.534751 Y8.074345
 X10.428993 Y8.051066
 X9.891894 Y8.004400
 X9.784239 Y8.016108
G0 Z25.0000000
 X11.651728 Y8.880100
G1 Z-1.0000000
 X11.591009 Y8.790546
 X11.520963 Y8.708082
 X11.450917 Y8.625618
 X11.293815 Y8.476803
 X11.121544 Y8.345846
 X11.028835 Y8.290064
 X10.936124 Y8.234283
 X10.739729 Y8.143420
 X10.534661 Y8.074325
 X10.323325 Y8.027806
 X10.108198 Y8.004410
 X10.000000
 X9.676765 Y8.027786
 X9.571007 Y8.051066
G0 Z25.0000000
 X8.878376 Y11.654106
G1 Z-1.0000000
 X9.063876 Y11.765717
 X9.260271 Y11.856580
 X9.465339 Y11.925675
 X9.571007 Y11.948934
 X9.162074 Y11.811149
 X9.260271 Y11.856580
 X9.362805 Y11.891128
 X8.479037 Y11.291918
 X8.549083 Y11.374382
 X8.627634 Y11.448790
 X8.106061 Y10.638045
 X8.146143 Y10.738645
 X8.236872 Y10.934751
 X8.287553 Y11.030345
 X8.408991 Y11.209454
 X8.549083 Y11.374382
 X8.706185 Y11.523197
 X8.792320 Y11.588676
 X8.878456 Y11.654154
 X8.971165 Y11.709936
G0 Z25.0000000
 X8.348272 Y8.880100
G1 Z-1.0000000
 X8.287553 Y8.969655
 X8.186191 Y9.160843
 X8.106061 Y9.361955
G0 Z25.0000000
 X10.215761 Y8.016108
G1 Z-1.0000000
 X10.108198 Y8.004410
 X9.891802
 X9.676675 Y8.027806
 X9.465339 Y8.074325
 X9.260271 Y8.143420
 X9.162074 Y8.188851
G0 Z25.0000000
 X13.000000 Y3.999990
G1 Z-1.0000000
 X15.000000
G0 Z25.0000000
 X8.627634 Y8.551210
G1 Z-1.0000000
 X8.549083 Y8.625618
 X8.408991 Y8.790546
 X8.287553 Y8.969655
 X8.236872 Y9.065249
 X9.362805 Y8.108872
 X9.260271 Y8.143420
 X9.063876 Y8.234283
 X8.971165 Y8.290064
 X8.878456 Y8.345846
 X8.706111 Y8.476859
 X8.792320 Y8.411324
 X8.706185 Y8.476803
 X8.549083 Y8.625618
 X8.479037 Y8.708082
 X8.007336 Y10.108039
 X8.013194 Y10.216078
 X8.048203 Y10.429623
 X8.077149 Y10.533876
 X8.106095 Y10.638131
 X8.186191 Y10.839157
 X8.287553 Y11.030345
 X8.348272 Y11.119900
 X8.146143 Y9.261355
 X8.106095 Y9.361869
 X8.077149 Y9.466124
 X8.048203 Y9.570377
 X8.013179 Y9.784013
 X8.030699 Y9.677149
 X8.013194 Y9.783922
 X8.007336 Y9.891961
 X8.001479 Y10.000000
 X8.013194 Y10.216078
 X8.030699 Y10.322851
G0 Z25.0000000
 X3.999990 Y7.000000
G1 Z-1.0000000
 Y5.000000
G0 Z25.0000000
 X7.000000 Y16.000010
G1 Z-1.0000000
 X3.999990
 Y3.999990
 X16.000010
 Y16.000010
 X5.000000
G0 Z25.0000000
 X11.450858 Y11.374452
G1 Z-1.5000000
 X11.573536 Y11.230024
 X11.590957 Y11.209530
 X11.697301 Y11.052684
 X10.739645 Y11.856619
 X10.911629 Y11.777050
 X11.143030 Y11.637821
 X11.293815 Y11.523197
 X11.431323 Y11.392943
 X10.108106 Y11.995600
 X10.296493 Y11.975112
 X10.323235 Y11.972214
 X10.508303 Y11.931477
 X9.676583 Y11.972184
 X9.864971 Y11.992672
 X9.465249 Y11.925655
 X9.650316 Y11.966392
G0 Z25.0000000
 X11.986801 Y10.216171
G1 Z-1.5000000
 X11.997060 Y10.026950
 X11.951782 Y10.429714
 X11.982439 Y10.242713
 X11.813775 Y10.839243
 X11.883915 Y10.663204
G0 Z25.0000000
 X9.891710 Y11.995590
G1 Z-1.5000000
 X10.108198
 X10.323325 Y11.972194
 X10.534661 Y11.925675
 X10.714152 Y11.865198
 X10.739729 Y11.856580
 X10.936124 Y11.765717
 X11.098419 Y11.668068
 X11.121544 Y11.654154
 X11.293815 Y11.523197
 X11.450917 Y11.374382
 X11.591009 Y11.209454
 X11.712447 Y11.030345
 X11.725089 Y11.006500
 X11.813809 Y10.839157
 X11.893905 Y10.638131
 X11.944577 Y10.455628
 X11.951797 Y10.429623
 X11.986806 Y10.216078
 X11.998521 Y10.000000
 X11.986801 Y9.783829
 X11.997060 Y9.973050
 X11.986806 Y9.783922
 X11.951797 Y9.570377
 X11.901126 Y9.387875
G0 Z25.0000000
 X16.000010 Y12.000000
G1 Z-1.5000000
 Y15.000000
G0 Z25.0000000
 X11.893939 Y9.361955
G1 Z-1.5000000
 X11.823798 Y9.185915
 X11.982439 Y9.757287
 X11.951797 Y9.570377
 X11.893905 Y9.361869
 X11.813809 Y9.160843
 X11.725089 Y8.993500
 X11.712447 Y8.969655
 X11.590957 Y8.790470
 X11.450985 Y8.625682
 X11.313409 Y8.495364
 X11.293889 Y8.476859
 X11.143030 Y8.362179
 X10.936208 Y8.234321
 X10.764224 Y8.154753
 X10.739816 Y8.143450
 X10.560237 Y8.082942
 X10.534751 Y8.074345
 X10.349684 Y8.033608
 X11.697301 Y8.947316
 X11.591009 Y8.790546
 X11.468390 Y8.646188
 X11.450917 Y8.625618
 X11.293815 Y8.476803
 X11.121544 Y8.345846
 X11.098419 Y8.331932
 X10.936124 Y8.234283
 X10.739729 Y8.143420
 X10.534661 Y8.074325
 X10.323325 Y8.027806
 X10.108198 Y8.004410
 X9.918792
 X9.891894 Y8.004400
 X9.703507 Y8.024888
 X9.676765 Y8.027786
 X9.491697 Y8.068523
G0 Z25.0000000
 X8.727671 Y11.539530
G1 Z-1.5000000
 X8.878456 Y11.654154
 X9.063876 Y11.765717
 X9.260271 Y11.856580
 X9.465339 Y11.925675
 X9.676675 Y11.972194
 X9.891802 Y11.995590
 X10.081208
 X9.088371 Y11.777050
 X9.260271 Y11.856580
 X9.439763 Y11.917058
 X8.426464 Y11.230024
 X8.549083 Y11.374382
 X8.686591 Y11.504636
 X8.106061 Y10.638045
 X8.176202 Y10.814085
 X8.198833 Y10.863002
 X8.287553 Y11.030345
 X8.393845 Y11.187115
G0 Z25.0000000
 X8.176202 Y9.185915
G1 Z-1.5000000
 X8.106061 Y9.361955
G0 Z25.0000000
 X10.296493 Y8.024888
G1 Z-1.5000000
 X10.108198 Y8.004410
 X9.891802
 X9.676675 Y8.027806
 X9.465339 Y8.074325
 X9.260271 Y8.143420
 X9.088371 Y8.222950
G0 Z25.0000000
 X12.000000 Y3.999990
G1 Z-1.5000000
 X15.000000
G0 Z25.0000000
 X8.856970 Y8.362179
G1 Z-1.5000000
 X8.706111 Y8.476859
 X8.549142 Y8.625548
 X8.408991 Y8.790546
 X8.287553 Y8.969655
 X8.198833 Y9.136998
 X9.439763 Y8.082942
 X9.260271 Y8.143420
 X9.063876 Y8.234283
 X8.901581 Y8.331932
 X8.878456 Y8.345846
 X8.706185 Y8.476803
 X8.686591 Y8.495364
 X8.549083 Y8.625618
 X8.426464 Y8.769976
 X8.013179 Y10.215987
 X8.043837 Y10.402990
 X8.393845 Y8.812885
 X8.287553 Y8.969655
 X8.186191 Y9.160843
 X8.106095 Y9.361869
 X8.055423 Y9.544372
 X8.048203 Y9.570377
 X8.013194 Y9.783922
 X8.001479 Y10.000000
 X8.002940 Y10.026950
 X8.013194 Y10.216078
 X8.048203 Y10.429623
 X8.055423 Y10.455628
 X8.106095 Y10.638131
 X8.186191 Y10.839157
 X8.287553 Y11.030345
 X8.408991 Y11.209454
 X8.549083 Y11.374382
 X8.706185 Y11.523197
 X8.878456 Y11.654154
 X9.040749 Y11.751803
G0 Z25.0000000
 X3.999990 Y8.000000
G1 Z-1.5000000
 Y5.000000
G0 Z25.0000000
 X8.043837 Y9.597010
G1 Z-1.5000000
 X8.013194 Y9.783922
 X8.002940 Y9.973050
G0 Z25.0000000
 X8.000000 Y16.000010
G1 Z-1.5000000
 X3.999990
 Y3.999990
 X16.000010
 Y16.000010
 X5.000000
G0 Z25.0000000
 X16.000010 Y11.000000
G1 Z-2.0000000
 Y15.000000
G0 Z25.0000000
 X9.000000 Y16.000010
G1 Z-2.0000000
 X5.000000
G0 Z25.0000000
 X10.492042 Y10.000000
G1 Z-2.0000000
 X10.476584 Y9.877634
 X10.431180 Y9.762957
 X10.358683 Y9.663174
 X10.263649 Y9.584555
 X10.152049 Y9.532040
 X10.030896 Y9.508929
 X9.907800 Y9.516673
 X9.790499 Y9.554787
 X9.686361 Y9.620875
 X9.601930 Y9.710785
 X9.542511 Y9.818867
 X9.511838 Y9.938331
 Y10.061669
 X9.542511 Y10.181133
 X9.601930 Y10.289215
 X9.686361 Y10.379125
 X9.790499 Y10.445213
 X9.907800 Y10.483327
 X10.030896 Y10.491071
 X10.152049 Y10.467960
 X10.263649 Y10.415445
 X10.358683 Y10.336826
 X10.431180 Y10.237043
 X10.476584 Y10.122366
 X10.492042 Y10.000000
G0 Z25.0000000
 X11.000000 Y3.999990
G1 Z-2.0000000
 X15.000000
G0 Z25.0000000
 X3.999990 Y9.000000
G1 Z-2.0000000
 Y3.999990
 X16.000010
 Y16.000010
 X3.999990
 Y5.000000
G0 Z25.0000000
 X10.263618 Y10.415470
G1 Z-2.5000000
 X10.358683 Y10.336826
 X10.431180 Y10.237043
 X10.476584 Y10.122366
 X10.492047 Y9.999960
G0 Z25.0000000
 X16.000010 Y10.000000
G1 Z-2.5000000
 Y15.000000
G0 Z25.0000000
 X10.492047 Y10.000040
G1 Z-2.5000000
 X10.476584 Y9.877634
 X10.431180 Y9.762957
 X10.358683 Y9.663174
 X10.263649 Y9.584555
 X10.152049 Y9.532040
 X10.030896 Y9.508929
 X9.907800 Y9.516673
 X9.790461 Y9.554800
G0 Z25.0000000
 X10.000000 Y16.000010
G1 Z-2.5000000
 X5.000000
G0 Z25.0000000
 X9.790533 Y9.554766
G1 Z-2.5000000
 X9.686361 Y9.620875
 X9.601930 Y9.710785
 X9.542511 Y9.818867
 X9.511838 Y9.938331
 Y10.061669
 X9.542511 Y10.181133
 X9.601930 Y10.289215
 X9.686361 Y10.379125
 X9.790499 Y10.445213
 X9.907800 Y10.483327
 X10.030896 Y10.491071
 X10.152049 Y10.467960
 X10.263686 Y10.415428
G0 Z25.0000000
 X10.000000 Y3.999990
G1 Z-2.5000000
 X15.000000
G0 Z25.0000000
 X3.999990 Y10.000000
G1 Z-2.5000000
 Y3.999990
 X16.000010
 Y16.000010
 X3.999990
 Y5.000000
G0 Z25.0000000
 X10.358660 Y10.336858
G1 Z-3.0000000
 X10.431180 Y10.237043
 X10.476584 Y10.122366
 X10.492042 Y10.000000
 X10.476584 Y9.877634
 X10.431180 Y9.762957
 X10.358660 Y9.663142
G0 Z25.0000000
 X16.000010 Y9.000000
G1 Z-3.0000000
 Y15.000000
G0 Z25.0000000
 X10.358714 Y9.663200
G1 Z-3.0000000
 X10.263649 Y9.584555
 X10.152049 Y9.532040
 X10.030896 Y9.508929
 X9.907760 Y9.516676
G0 Z25.0000000
 X11.000000 Y16.000010
G1 Z-3.0000000
 X5.000000
G0 Z25.0000000
 X9.907839 Y9.516661
G1 Z-3.0000000
 X9.790499 Y9.554787
 X9.686361 Y9.620875
 X9.601930 Y9.710785
 X9.542511 Y9.818867
 X9.511838 Y9.938331
 Y10.061669
 X9.542511 Y10.181133
 X9.601930 Y10.289215
 X9.686361 Y10.379125
 X9.790499 Y10.445213
 X9.907800 Y10.483327
 X10.030896 Y10.491071
 X10.152049 Y10.467960
 X10.263649 Y10.415445
 X10.358714 Y10.336800
G0 Z25.0000000
 X9.000000 Y3.999990
G1 Z-3.0000000
 X15.000000
G0 Z25.0000000
 X3.999990 Y11.000000
G1 Z-3.0000000
 Y3.999990
 X16.000010
 Y16.000010
 X3.999990
 Y5.000000
G0 Z25.0000000
 X10.358660 Y10.336858
G1 Z-3.5000000
 X10.431180 Y10.237043
 X10.476584 Y10.122366
 X10.492047 Y9.999960
G0 Z25.0000000
 X16.000010 Y8.000000
G1 Z-3.5000000
 Y15.000000
G0 Z25.0000000
 X12.000000 Y16.000010
G1 Z-3.5000000
 X5.000000
G0 Z25.0000000
 X9.601902 Y10.289186
G1 Z-3.5000000
 X9.686361 Y10.379125
 X9.790499 Y10.445213
 X9.907800 Y10.483327
 X10.030896 Y10.491071
 X10.152049 Y10.467960
 X10.263649 Y10.415445
 X10.358714 Y10.336800
 X10.492047 Y10.000040
 X10.476584 Y9.877634
 X10.431180 Y9.762957
 X10.358683 Y9.663174
 X10.263649 Y9.584555
 X10.152049 Y9.532040
 X10.030896 Y9.508929
 X9.907800 Y9.516673
 X9.790499 Y9.554787
 X9.686361 Y9.620875
 X9.601930 Y9.710785
 X9.542511 Y9.818867
 X9.511838 Y9.938331
 Y10.061669
 X9.542511 Y10.181133
 X9.601949 Y10.289250
G0 Z25.0000000
 X8.000000 Y3.999990
G1 Z-3.5000000
 X15.000000
G0 Z25.0000000
 X3.999990 Y12.000000
G1 Z-3.5000000
 Y3.999990
 X16.000010
 Y16.000010
 X3.999990
 Y5.000000
G0 Z25.0000000
 X9.790461 Y10.445200
G1 Z-4.0000000
 X9.907800 Y10.483327
 X10.030896 Y10.491071
 X10.152049 Y10.467960
 X10.263686 Y10.415428
G0 Z25.0000000
 X16.000010 Y7.000000
G1 Z-4.0000000
 Y15.000000
G0 Z25.0000000
 X13.000000 Y16.000010
G1 Z-4.0000000
 X5.000000
G0 Z25.0000000
 X10.263618 Y10.415470
G1 Z-4.0000000
 X10.358683 Y10.336826
 X10.431180 Y10.237043
 X10.476584 Y10.122366
 X10.492042 Y10.000000
 X10.476584 Y9.877634
 X10.431180 Y9.762957
 X10.358683 Y9.663174
 X10.263649 Y9.584555
 X10.152049 Y9.532040
 X10.030896 Y9.508929
 X9.907800 Y9.516673
 X9.790499 Y9.554787
 X9.686361 Y9.620875
 X9.601930 Y9.710785
 X9.542511 Y9.818867
 X9.511838 Y9.938331
 Y10.061669
 X9.542511 Y10.181133
 X9.601930 Y10.289215
 X9.686361 Y10.379125
 X9.790533 Y10.445234
G0 Z25.0000000
 X7.000000 Y3.999990
G1 Z-4.0000000
 X15.000000
G0 Z25.0000000
 X3.999990 Y13.000000
G1 Z-4.0000000
 Y3.999990
 X16.000010
 Y16.000010
 X3.999990
 Y5.000000
G0 Z25.0000000
 X9.907760 Y10.483324
G1 Z-4.5000000
 X10.030896 Y10.491071
 X10.152049 Y10.467960
 X10.263649 Y10.415445
 X10.358683 Y10.336826
 X10.431180 Y10.237043
 X10.476584 Y10.122366
 X10.492042 Y10.000000
 X10.476584 Y9.877634
 X10.431165 Y9.762920
G0 Z25.0000000
 X16.000010 Y6.000000
G1 Z-4.5000000
 Y15.000000
G0 Z25.0000000
 X10.431203 Y9.762990
G1 Z-4.5000000
 X10.358683 Y9.663174
 X10.263649 Y9.584555
 X10.152049 Y9.532040
 X10.030896 Y9.508929
 X9.907760 Y9.516676
G0 Z25.0000000
 X14.000000 Y16.000010
G1 Z-4.5000000
 X5.000000
G0 Z25.0000000
 X9.601902 Y10.289186
G1 Z-4.5000000
 X9.686361 Y10.379125
 X9.790499 Y10.445213
 X9.907839 Y10.483339
 Y9.516661
 X9.790499 Y9.554787
 X9.686361 Y9.620875
 X9.601930 Y9.710785
 X9.542511 Y9.818867
 X9.511838 Y9.938331
 Y10.061669
 X9.542511 Y10.181133
 X9.601949 Y10.289250
G0 Z25.0000000
 X6.000000 Y3.999990
G1 Z-4.5000000
 X15.000000
G0 Z25.0000000
 X3.999990 Y14.000000
G1 Z-4.5000000
 Y3.999990
 X16.000010
 Y16.000010
 X3.999990
 Y5.000000
G0 Z25.0000000
 X17.763649 Y17.915445
G1 Z-5.0000000
 X17.858683 Y17.836826
 X17.931180 Y17.737043
 X17.976584 Y17.622366
 X17.992042 Y17.500000
 X17.976584 Y17.377634
 X17.931180 Y17.262957
 X17.858683 Y17.163174
 X17.763650 Y17.084556
 X17.652049 Y17.032040
 X17.530895 Y17.008929
 X17.407800 Y17.016673
 X17.290499 Y17.054787
 X17.186361 Y17.120875
 X17.101930 Y17.210785
 X17.042511 Y17.318867
 X17.011838 Y17.438331
 Y17.561669
 X17.042511 Y17.681132
 X17.101930 Y17.789215
 X17.186361 Y17.879125
 X17.290498 Y17.945213
 X17.407800 Y17.983326
 X17.530896 Y17.991071
 X17.652050 Y17.967960
 X17.763649 Y17.915445
G0 Z25.0000000
 X9.907760 Y10.483324
G1 Z-5.0000000
 X9.922441 Y10.484248
 X10.490203 Y10.014554
 X10.492047 Y9.999960
 X10.358660 Y10.336858
 X10.367306 Y10.324958
 X10.431165 Y10.237080
 X10.436580 Y10.223404
 Y9.776596
 X10.431180 Y9.762957
 X10.422557 Y9.751089
 X9.790461 Y10.445200
 X9.804450 Y10.449746
 X10.152013 Y10.467977
 X10.165323 Y10.461714
 X10.030856 Y10.491079
 X10.045305 Y10.488322
 X10.263618 Y10.415470
 X10.274952 Y10.406094
 X9.686327 Y10.379103
 X9.698746 Y10.386985
 X10.263686 Y9.584572
 X10.250376 Y9.578309
 X9.790533 Y9.554766
 X9.778113 Y9.562647
 X10.045305 Y9.511678
 X10.030896 Y9.508929
 X10.016255 Y9.509850
 X9.907839 Y9.516661
 X9.893849 Y9.521207
G0 Z25.0000000
 X17.858683 Y2.163174
G1 Z-5.0000000
 X17.763649 Y2.084555
 X17.652050 Y2.032040
 X17.530896 Y2.008929
 X17.407800 Y2.016674
 X17.290498 Y2.054787
 X17.186361 Y2.120875
 X17.101930 Y2.210785
 X17.042511 Y2.318868
 X17.011838 Y2.438331
 Y2.561669
 X17.042511 Y2.681133
 X17.101930 Y2.789215
 X17.186361 Y2.879125
 X17.290499 Y2.945213
 X17.407800 Y2.983327
 X17.530895 Y2.991071
 X17.652049 Y2.967960
 X17.763650 Y2.915444
 X17.858683 Y2.836826
 X17.931180 Y2.737043
 X17.976584 Y2.622366
 X17.992042 Y2.500000
 X17.976584 Y2.377634
 X17.931180 Y2.262957
 X17.858683 Y2.163174
G0 Z25.0000000
 X9.601902 Y10.289186
G1 Z-5.0000000
 X9.611971 Y10.299908
 X9.511838 Y10.047000
 Y10.061669
 X9.515486 Y10.075878
 X9.611971 Y9.700092
 X9.601930 Y9.710785
 X9.594863 Y9.723640
 X9.542521 Y9.818828
 X9.511838 Y9.938331
 Y10.061669
 X9.542511 Y10.181133
 X9.594863 Y10.276360
 X9.601930 Y10.289215
 X9.686361 Y10.379125
 X9.790499 Y10.445213
 X9.907800 Y10.483327
 X10.030896 Y10.491071
 X10.152049 Y10.467960
 X10.263649 Y10.415445
 X10.358683 Y10.336826
 X10.431180 Y10.237043
 X10.476584 Y10.122366
 X10.492042 Y10.000000
 X10.490203 Y9.985446
 X10.476584 Y9.877634
 X10.431180 Y9.762957
 X10.358683 Y9.663174
 X10.347380 Y9.653824
 X10.263649 Y9.584555
 X10.152049 Y9.532040
 X10.030896 Y9.508929
 X9.907800 Y9.516673
 X9.790499 Y9.554787
 X9.686361 Y9.620875
 X9.601930 Y9.710785
 X9.542511 Y9.818867
 X9.538863 Y9.833076
G0 Z25.0000000
 X2.652049 Y17.967960
G1 Z-5.0000000
 X2.763648 Y17.915445
 X2.858683 Y17.836826
 X2.931180 Y17.737043
 X2.976584 Y17.622366
 X2.992042 Y17.500000
 X2.976584 Y17.377634
 X2.931179 Y17.262957
 X2.858683 Y17.163174
 X2.763649 Y17.084555
 X2.652049 Y17.032040
 X2.530895 Y17.008929
 X2.407800 Y17.016673
 X2.290499 Y17.054787
 X2.186361 Y17.120875
 X2.101929 Y17.210785
 X2.042511 Y17.318866
 X2.011838 Y17.438330
 Y17.561670
 X2.042511 Y17.681134
 X2.101930 Y17.789215
 X2.186361 Y17.879125
 X2.290498 Y17.945213
 X2.407800 Y17.983326
 X2.530896 Y17.991071
 X2.652049 Y17.967960
G0 Z25.0000000
 X2.530895 Y2.991071
G1 Z-5.0000000
 X2.652049 Y2.967960
 X2.763649 Y2.915445
 X2.858683 Y2.836826
 X2.931179 Y2.737043
 X2.976584 Y2.622366
 X2.992042 Y2.500000
 X2.976584 Y2.377634
 X2.931180 Y2.262957
 X2.858683 Y2.163174
 X2.763648 Y2.084555
 X2.652049 Y2.032040
 X2.530896 Y2.008929
 X2.407800 Y2.016674
 X2.290498 Y2.054787
 X2.186361 Y2.120875
 X2.101930 Y2.210785
 X2.042511 Y2.318866
 X2.011838 Y2.438330
 Y2.561670
 X2.042511 Y2.681134
 X2.101929 Y2.789215
 X2.186361 Y2.879125
 X2.290499 Y2.945213
 X2.407800 Y2.983327
 X2.530895 Y2.991071
G0 Z25.0000000
 X17.186327 Y17.879104
G1 Z-5.5000000
 X17.290498 Y17.945213
 X17.407800 Y17.983326
 X17.530896 Y17.991071
 X17.652089 Y17.967952
 X17.763649 Y17.915445
 X17.858714 Y17.836800
 X17.931203 Y17.737010
 X17.976584 Y17.622366
 X17.992042 Y17.500000
 X17.976584 Y17.377634
 X17.931165 Y17.262920
 X17.858683 Y17.163174
 X17.763619 Y17.084530
 X17.042491 Y17.681097
 X17.101949 Y17.789250
 X17.186389 Y17.879155
 X17.763686 Y17.084573
 X17.652049 Y17.032040
 X17.530895 Y17.008929
 X17.407800 Y17.016673
 X17.290499 Y17.054787
 X17.186361 Y17.120875
 X17.101930 Y17.210785
 X17.042492 Y17.318902
 X17.011838 Y17.438331
 Y17.561669
 X17.042521 Y17.681171
G0 Z25.0000000
 X9.907760 Y10.483324
G1 Z-5.5000000
 X9.945894 Y10.485723
 X10.487258 Y10.037868
 X10.492047 Y9.999960
 X10.431165 Y10.237080
 X10.445231 Y10.201554
 X10.152013 Y10.467977
 X10.186586 Y10.451708
 X10.030856 Y10.491079
 X10.068389 Y10.483919
 X9.686327 Y10.379103
 X9.718588 Y10.399577
 X9.790461 Y10.445200
 X9.826800 Y10.457008
 X10.445231 Y9.798446
 X10.431180 Y9.762957
 X10.408744 Y9.732077
 X10.358714 Y9.663200
 X10.329273 Y9.638844
 X10.263686 Y9.584572
 X10.229113 Y9.568304
 X10.068389 Y9.516081
 X10.030896 Y9.508929
 X9.992802 Y9.511326
 X9.907839 Y9.516661
 X9.871499 Y9.528468
 X9.790533 Y9.554766
 X9.758271 Y9.575239
G0 Z25.0000000
 X17.858659 Y2.836859
G1 Z-5.5000000
 X17.931203 Y2.737011
 X17.976584 Y2.622366
 X17.992042 Y2.500000
 X17.976584 Y2.377634
 X17.931180 Y2.262957
 X17.858659 Y2.163142
 X17.407760 Y2.983324
 X17.530895 Y2.991071
 X17.652089 Y2.967952
 X17.763650 Y2.915444
 X17.858714 Y2.836801
 Y2.163200
 X17.763649 Y2.084555
 X17.652013 Y2.032023
 X17.186327 Y2.879103
 X17.290499 Y2.945213
 X17.407839 Y2.983339
 X17.042492 Y2.681098
 X17.101930 Y2.789215
 X17.186388 Y2.879154
 X17.101949 Y2.210750
 X17.042491 Y2.318903
 X17.011838 Y2.438331
 Y2.561669
 X17.042521 Y2.681172
 X17.652089 Y2.032048
 X17.530896 Y2.008929
 X17.407800 Y2.016674
 X17.290498 Y2.054787
 X17.186361 Y2.120875
 X17.101902 Y2.210814
G0 Z25.0000000
 X9.583541 Y10.255767
G1 Z-5.5000000
 X9.601930 Y10.289215
 X9.628058 Y10.317039
 X9.511838 Y10.023500
 Y10.061669
 X9.521330 Y10.098639
 X9.628058 Y9.682961
 X9.601930 Y9.710785
 X9.583541 Y9.744233
 X9.542521 Y9.818828
 X9.511838 Y9.938331
 Y10.061669
 X9.542511 Y10.181133
 X9.601930 Y10.289215
 X9.686361 Y10.379125
 X9.790499 Y10.445213
 X9.907800 Y10.483327
 X10.030896 Y10.491071
 X10.152049 Y10.467960
 X10.263649 Y10.415445
 X10.293059 Y10.391115
 X10.358683 Y10.336826
 X10.381118 Y10.305946
 X10.431180 Y10.237043
 X10.476584 Y10.122366
 X10.492042 Y10.000000
 X10.487258 Y9.962132
 X10.476584 Y9.877634
 X10.431180 Y9.762957
 X10.358683 Y9.663174
 X10.263649 Y9.584555
 X10.152049 Y9.532040
 X10.030896 Y9.508929
 X9.907800 Y9.516673
 X9.790499 Y9.554787
 X9.686361 Y9.620875
 X9.601930 Y9.710785
 X9.542511 Y9.818867
 X9.533019 Y9.855837
G0 Z25.0000000
 X2.858659 Y17.836858
G1 Z-5.5000000
 X2.931180 Y17.737043
 X2.976584 Y17.622366
 X2.992047 Y17.499960
 X2.976578 Y17.377594
 X2.186327 Y17.879104
 X2.290498 Y17.945213
 X2.407800 Y17.983326
 X2.530896 Y17.991071
 X2.652049 Y17.967960
 X2.763648 Y17.915445
 X2.858714 Y17.836800
 X2.101902 Y17.789186
 X2.186388 Y17.879155
 X2.976598 Y17.377672
 X2.931165 Y17.262920
 X2.042521 Y17.318827
 X2.011838 Y17.438330
 Y17.561670
 X2.042511 Y17.681134
 X2.101949 Y17.789250
 X2.931203 Y17.262989
 X2.858683 Y17.163174
 X2.763618 Y17.084530
 X2.652049 Y17.032040
 X2.530895 Y17.008929
 X2.407800 Y17.016673
 X2.290461 Y17.054799
 X2.186361 Y17.120875
 X2.101929 Y17.210785
 X2.042492 Y17.318901
G0 Z25.0000000
 X2.407760 Y2.983324
G1 Z-5.5000000
 X2.530895 Y2.991071
 X2.652088 Y2.967952
 X2.042492 Y2.681099
 X2.101929 Y2.789215
 X2.186361 Y2.879125
 X2.290499 Y2.945213
 X2.407839 Y2.983339
 X2.652012 Y2.967977
 X2.763649 Y2.915445
 X2.858683 Y2.836826
 X2.931179 Y2.737043
 X2.976584 Y2.622366
 X2.992047 Y2.499960
 X2.976578 Y2.377594
 X2.931180 Y2.262957
 X2.858659 Y2.163142
 X2.763617 Y2.084529
 X2.652049 Y2.032040
 X2.530896 Y2.008929
 X2.407800 Y2.016674
 X2.290460 Y2.054800
 X2.186361 Y2.120875
 X2.101902 Y2.210814
 X2.042492 Y2.318902
 X2.011838 Y2.438330
 Y2.561670
 X2.042521 Y2.681173
G0 Z25.0000000
 X17.407760 Y17.983324
G1 Z-6.0000000
 X17.530896 Y17.991071
 X17.652050 Y17.967960
 X17.763649 Y17.915445
 X17.858714 Y17.836800
 X17.186327 Y17.879104
 X17.290498 Y17.945213
 X17.407838 Y17.983339
 X17.992047 Y17.500040
 X17.976579 Y17.377594
 X17.858659 Y17.836858
 X17.931180 Y17.737043
 X17.976584 Y17.622366
 X17.992047 Y17.499960
 X17.976599 Y17.377672
 X17.931180 Y17.262957
 X17.858659 Y17.163141
 X17.763619 Y17.084530
 X17.652049 Y17.032040
 X17.530895 Y17.008929
 X17.407760 Y17.016676
 X17.101902 Y17.789186
 X17.186389 Y17.879155
 X17.101949 Y17.210750
 X17.042492 Y17.318902
 X17.407839 Y17.016661
 X17.290499 Y17.054787
 X17.186361 Y17.120875
 X17.101902 Y17.210814
 X17.042521 Y17.318828
 X17.011838 Y17.438331
 Y17.561669
 X17.042511 Y17.681132
 X17.101949 Y17.789250
G0 Z25.0000000
 X9.907760 Y10.483324
G1 Z-6.0000000
 X9.969348 Y10.487199
 X10.484313 Y10.061183
 X10.492042 Y10.000000
 X10.484313 Y9.938817
 X10.431165 Y10.237080
 X10.453882 Y10.179704
 X10.358660 Y10.336858
 X10.394931 Y10.286934
 X10.453882 Y9.820296
 X10.431180 Y9.762957
 X10.394931 Y9.713066
 X10.030856 Y10.491079
 X10.091472 Y10.479515
 X10.152013 Y10.467977
 X10.207849 Y10.441702
 X9.790461 Y10.445200
 X9.849150 Y10.464270
 X10.263618 Y10.415470
 X10.311166 Y10.376135
 X9.686327 Y10.379103
 X9.738430 Y10.412169
 X10.358714 Y9.663200
 X10.311166 Y9.623865
 X10.263686 Y9.584572
 X10.207849 Y9.558298
 X10.091472 Y9.520485
 X10.030896 Y9.508929
 X9.969348 Y9.512801
 X9.790533 Y9.554766
 X9.738430 Y9.587831
G0 Z25.0000000
 X17.992047 Y2.500040
G1 Z-6.0000000
 X17.976579 Y2.377594
 X17.858659 Y2.836859
 X17.931180 Y2.737043
 X17.976584 Y2.622366
 X17.992047 Y2.499960
 X17.976599 Y2.377672
 X17.931180 Y2.262957
 X17.858683 Y2.163174
 X17.763618 Y2.084529
 X17.652013 Y2.032023
 X17.186327 Y2.879103
 X17.290499 Y2.945213
 X17.407800 Y2.983327
 X17.530895 Y2.991071
 X17.652049 Y2.967960
 X17.763650 Y2.915444
 X17.858714 Y2.836801
 X17.652089 Y2.032048
 X17.530896 Y2.008929
 X17.407760 Y2.016676
 X17.042521 Y2.318829
 X17.011838 Y2.438331
 Y2.561669
 X17.042511 Y2.681133
 X17.101930 Y2.789215
 X17.186388 Y2.879154
 X17.101949 Y2.210750
 X17.042491 Y2.318903
 X17.407838 Y2.016661
 X17.290498 Y2.054787
 X17.186361 Y2.120875
 X17.101902 Y2.210814
G0 Z25.0000000
 X9.572220 Y10.235174
G1 Z-6.0000000
 X9.601930 Y10.289215
 X9.644145 Y10.334170
 X9.511838 Y10.000000
 Y10.061669
 X9.527174 Y10.121401
 X9.644145 Y9.665830
 X9.601930 Y9.710785
 X9.572220 Y9.764826
 X9.542521 Y9.818828
 X9.511838 Y9.938331
 Y10.061669
 X9.542511 Y10.181133
 X9.601930 Y10.289215
 X9.686361 Y10.379125
 X9.790499 Y10.445213
 X9.907800 Y10.483327
 X10.030896 Y10.491071
 X10.152049 Y10.467960
 X10.263649 Y10.415445
 X10.358683 Y10.336826
 X10.431180 Y10.237043
 X10.476584 Y10.122366
 X10.492042 Y10.000000
 X10.476584 Y9.877634
 X10.431180 Y9.762957
 X10.358683 Y9.663174
 X10.263649 Y9.584555
 X10.152049 Y9.532040
 X10.030896 Y9.508929
 X9.907800 Y9.516673
 X9.849150 Y9.535730
 X9.790499 Y9.554787
 X9.686361 Y9.620875
 X9.601930 Y9.710785
 X9.542511 Y9.818867
 X9.527174 Y9.878599
G0 Z25.0000000
 X2.407760 Y17.983324
G1 Z-6.0000000
 X2.530896 Y17.991071
 X2.652049 Y17.967960
 X2.763648 Y17.915445
 X2.858683 Y17.836826
 X2.931180 Y17.737043
 X2.976584 Y17.622366
 X2.992042 Y17.500000
 X2.976578 Y17.377594
 X2.101902 Y17.789186
 X2.186388 Y17.879155
 X2.290498 Y17.945213
 X2.407838 Y17.983339
 X2.042492 Y17.681098
 X2.101949 Y17.789250
 X2.042521 Y17.318827
 X2.011838 Y17.438330
 Y17.561670
 X2.042521 Y17.681173
 X2.976598 Y17.377672
 X2.931179 Y17.262957
 X2.858659 Y17.163142
 X2.763618 Y17.084530
 X2.101949 Y17.210750
 X2.042492 Y17.318901
 X2.407839 Y17.016661
 X2.290499 Y17.054787
 X2.186361 Y17.120875
 X2.101902 Y17.210814
 X2.763686 Y17.084572
 X2.652049 Y17.032040
 X2.530895 Y17.008929
 X2.407760 Y17.016676
G0 Z25.0000000
 X2.186327 Y2.879103
G1 Z-6.0000000
 X2.290499 Y2.945213
 X2.407800 Y2.983327
 X2.530935 Y2.991074
 X2.652049 Y2.967960
 X2.763649 Y2.915445
 X2.858683 Y2.836826
 X2.931179 Y2.737043
 X2.976584 Y2.622366
 X2.992042 Y2.500000
 X2.976578 Y2.377594
 X2.042492 Y2.681099
 X2.101929 Y2.789215
 X2.186388 Y2.879154
 X2.976598 Y2.377672
 X2.931165 Y2.262920
 X2.858659 Y2.163142
 X2.763617 Y2.084529
 X2.652013 Y2.032023
 X2.530896 Y2.008929
 X2.407760 Y2.016676
 X2.290498 Y2.054787
 X2.186361 Y2.120875
 X2.101902 Y2.210814
 X2.011828 Y2.561631
 X2.042521 Y2.681173
 X2.101949 Y2.210750
 X2.042511 Y2.318866
 X2.011838 Y2.438330
 Y2.561710
G0 Z25.0000000
 X17.858659 Y17.836858
G1 Z-6.5000000
 X17.931203 Y17.737010
 X17.530857 Y17.991078
 X17.652089 Y17.967952
 X17.763649 Y17.915445
 X17.858714 Y17.836800
 X17.931165 Y17.737080
 X17.976584 Y17.622366
 X17.992042 Y17.500000
 X17.976584 Y17.377634
 X17.931165 Y17.262920
 X17.858683 Y17.163174
 X17.763650 Y17.084556
 X17.652013 Y17.032023
 X17.530895 Y17.008929
 X17.407760 Y17.016676
 X17.290461 Y17.054799
 X17.042491 Y17.681097
 X17.101930 Y17.789215
 X17.186361 Y17.879125
 X17.290498 Y17.945213
 X17.407800 Y17.983326
 X17.530937 Y17.991073
 X17.011828 Y17.561630
 X17.042521 Y17.681171
 X17.290533 Y17.054765
 X17.186361 Y17.120875
 X17.101930 Y17.210785
 X17.042511 Y17.318867
 X17.011838 Y17.438331
 Y17.561709
G0 Z25.0000000
 X9.907760 Y10.483324
G1 Z-6.5000000
 X9.992802 Y10.488674
 X10.431165 Y10.237080
 X10.462533 Y10.157855
 X10.481367 Y10.084498
 X10.492042 Y10.000000
 X10.481367 Y9.915502
 X10.152013 Y10.467977
 X10.229113 Y10.431696
 X10.462533 Y9.842145
 X10.431180 Y9.762957
 X10.381118 Y9.694054
 X10.030856 Y10.491079
 X10.114556 Y10.475112
 X10.263618 Y10.415470
 X10.329273 Y10.361156
 X9.686327 Y10.379103
 X9.758271 Y10.424761
 X10.263686 Y9.584572
 X10.186586 Y9.548292
 X9.790533 Y9.554766
 X9.718588 Y9.600423
 X9.790461 Y10.445200
 X9.907800 Y10.483327
 X10.030896 Y10.491071
 X10.152049 Y10.467960
 X10.263649 Y10.415445
 X10.358683 Y10.336826
 X10.408744 Y10.267923
 X10.431180 Y10.237043
 X10.476584 Y10.122366
 X10.492042 Y10.000000
 X10.476584 Y9.877634
 X10.431180 Y9.762957
 X10.358683 Y9.663174
 X10.293059 Y9.608885
 X10.263649 Y9.584555
 X10.152049 Y9.532040
 X10.030896 Y9.508929
 X9.945894 Y9.514277
G0 Z25.0000000
 X17.858659 Y2.836859
G1 Z-6.5000000
 X17.931203 Y2.737011
 X17.976584 Y2.622366
 X17.992042 Y2.500000
 X17.976584 Y2.377634
 X17.931165 Y2.262920
 X17.858659 Y2.163142
 X17.530856 Y2.991079
 X17.652089 Y2.967952
 X17.407760 Y2.983324
 X17.530935 Y2.991074
 X17.652013 Y2.967977
 X17.763650 Y2.915444
 X17.858714 Y2.836801
 X17.101902 Y2.789186
 X17.186361 Y2.879125
 X17.290499 Y2.945213
 X17.407839 Y2.983339
 X17.042492 Y2.681098
 X17.101949 Y2.789250
 X17.011828 Y2.561630
 X17.042521 Y2.681172
 X17.858714 Y2.163200
 X17.763649 Y2.084555
 X17.652050 Y2.032040
 X17.530896 Y2.008929
 X17.407800 Y2.016674
 X17.290460 Y2.054800
 X17.186361 Y2.120875
 X17.101930 Y2.210785
 X17.042511 Y2.318868
 X17.011838 Y2.438331
 Y2.561709
G0 Z25.0000000
 X9.560899 Y10.214581
G1 Z-6.5000000
 X9.601930 Y10.289215
 X9.660232 Y10.351301
 X9.511838 Y9.976500
 Y10.061669
 X9.533019 Y10.144163
 X9.660232 Y9.648699
 X9.601930 Y9.710785
 X9.560899 Y9.785419
 X9.542521 Y9.818828
 X9.511838 Y9.938331
 Y10.061669
 X9.542511 Y10.181133
 X9.601930 Y10.289215
 X9.686361 Y10.379125
 X9.790499 Y10.445213
 X9.871499 Y10.471532
 X10.114556 Y9.524888
 X10.030896 Y9.508929
 X9.907800 Y9.516673
 X9.826800 Y9.542992
 X9.790499 Y9.554787
 X9.686361 Y9.620875
 X9.601930 Y9.710785
 X9.542511 Y9.818867
 X9.521330 Y9.901361
G0 Z25.0000000
 X2.530857 Y17.991078
G1 Z-6.5000000
 X2.652089 Y17.967952
 X2.763648 Y17.915445
 X2.858714 Y17.836800
 X2.931203 Y17.737010
 X2.976584 Y17.622366
 X2.992047 Y17.499960
 X2.011828 Y17.561631
 X2.042511 Y17.681134
 X2.101930 Y17.789215
 X2.186361 Y17.879125
 X2.290498 Y17.945213
 X2.407800 Y17.983326
 X2.530937 Y17.991073
 X2.992047 Y17.500040
 X2.976584 Y17.377634
 X2.931165 Y17.262920
 X2.858683 Y17.163174
 X2.763649 Y17.084555
 X2.652012 Y17.032023
 X2.407839 Y17.016661
 X2.290461 Y17.054799
 X2.186361 Y17.120875
 X2.101929 Y17.210785
 X2.042511 Y17.318866
 X2.011838 Y17.438330
 Y17.561710
 X2.652088 Y17.032048
 X2.530895 Y17.008929
 X2.407760 Y17.016676
G0 Z25.0000000
 X2.652012 Y2.967977
G1 Z-6.5000000
 X2.763649 Y2.915445
 X2.858714 Y2.836800
 X2.931203 Y2.737011
 X2.407760 Y2.983324
 X2.530895 Y2.991071
 X2.652088 Y2.967952
 X2.101902 Y2.789186
 X2.186361 Y2.879125
 X2.290499 Y2.945213
 X2.407839 Y2.983339
 X2.931165 Y2.737080
 X2.976584 Y2.622366
 X2.992047 Y2.499960
 X2.976584 Y2.377634
 X2.931180 Y2.262957
 X2.858683 Y2.163174
 X2.763648 Y2.084555
 X2.652049 Y2.032040
 X2.530896 Y2.008929
 X2.407800 Y2.016674
 X2.290460 Y2.054800
 X2.186361 Y2.120875
 X2.101902 Y2.210814
 X2.042492 Y2.318902
 X2.011838 Y2.438330
 Y2.561670
 X2.042511 Y2.681134
 X2.101949 Y2.789250
G0 Z25.0000000
 X17.652013 Y17.967977
G1 Z-7.0000000
 X17.763649 Y17.915445
 X17.858683 Y17.836826
 X17.872830 Y17.817354
 X17.186327 Y17.879104
 X17.290498 Y17.945213
 X17.384908 Y17.975888
 X17.407800 Y17.983326
 X17.431822 Y17.984838
 X17.530896 Y17.991071
 X17.554540 Y17.986561
 X17.652050 Y17.967960
 X17.673827 Y17.957712
 X17.931165 Y17.737080
 X17.940041 Y17.714663
 X17.931203 Y17.262989
 X17.917031 Y17.243483
 X17.763686 Y17.084573
 X17.741872 Y17.074307
 X17.101902 Y17.789186
 X17.186361 Y17.879125
 X17.206683 Y17.892022
 X17.042491 Y17.681097
 X17.101930 Y17.789215
 X17.118407 Y17.806762
 X17.011838 Y17.438291
 Y17.462400
 X17.042521 Y17.318828
 X17.036525 Y17.342180
 X17.840137 Y17.852168
 X17.858683 Y17.836826
 X17.931180 Y17.737043
 X17.976584 Y17.622366
 X17.989025 Y17.523881
 X17.992042 Y17.500000
 X17.989025 Y17.476119
 X17.976584 Y17.377634
 X17.967724 Y17.355257
 X17.931180 Y17.262957
 X17.858683 Y17.163174
 X17.840138 Y17.147832
 X17.763650 Y17.084556
 X17.652049 Y17.032040
 X17.628406 Y17.027530
 X17.530895 Y17.008929
 X17.431822 Y17.015162
 X17.407800 Y17.016673
 X17.384910 Y17.024111
 X17.290499 Y17.054787
 X17.270177 Y17.067684
 X17.186361 Y17.120875
 X17.118406 Y17.193240
 X17.101930 Y17.210785
 X17.090334 Y17.231877
 X17.042511 Y17.318867
 X17.011838 Y17.438331
 Y17.561669
 X17.017824 Y17.584982
 X17.042511 Y17.681132
 X17.054106 Y17.702224
G0 Z25.0000000
 X9.907760 Y10.483324
G1 Z-7.0000000
 X10.016255 Y10.490150
 X10.358660 Y10.336858
 X10.422557 Y10.248911
 X10.478422 Y10.107812
 X10.492042 Y10.000000
 X10.478422 Y9.892188
 X10.431165 Y10.237080
 X10.471183 Y10.136005
 Y9.863995
 X10.431180 Y9.762957
 X10.367306 Y9.675042
 X10.152013 Y10.467977
 X10.250376 Y10.421691
 X10.030856 Y10.491079
 X10.137640 Y10.470708
 X9.686327 Y10.379103
 X9.778113 Y10.437353
 X10.358714 Y9.663200
 X10.274952 Y9.593906
 X10.263686 Y9.584572
 X10.165323 Y9.538286
 X9.790533 Y9.554766
 X9.698746 Y9.613015
 X10.137640 Y9.529292
 X10.030896 Y9.508929
 X9.922441 Y9.515752
G0 Z25.0000000
 X17.931165 Y2.737080
G1 Z-7.0000000
 X17.940041 Y2.714663
 X17.858714 Y2.163200
 X17.840137 Y2.147832
 X17.652013 Y2.967977
 X17.763650 Y2.915444
 X17.858683 Y2.836826
 X17.872830 Y2.817355
 X17.384910 Y2.975889
 X17.407839 Y2.983339
 X17.652089 Y2.032048
 X17.628408 Y2.027530
 X17.186327 Y2.879103
 X17.290499 Y2.945213
 X17.407800 Y2.983327
 X17.431822 Y2.984838
 X17.530895 Y2.991071
 X17.554538 Y2.986561
 X17.652049 Y2.967960
 X17.673828 Y2.957711
 X17.042492 Y2.681098
 X17.101930 Y2.789215
 X17.118406 Y2.806760
 X17.186361 Y2.879125
 X17.206684 Y2.892022
 X17.011838 Y2.438291
 Y2.561669
 X17.017824 Y2.584982
 X17.042511 Y2.681133
 X17.054106 Y2.702225
 X17.042521 Y2.318829
 X17.011838 Y2.438331
 Y2.462400
 X17.118407 Y2.193238
 X17.101902 Y2.210814
 X17.840138 Y2.852168
 X17.858683 Y2.836826
 X17.931180 Y2.737043
 X17.976584 Y2.622366
 X17.989025 Y2.523881
 X17.992042 Y2.500000
 X17.989025 Y2.476119
 X17.976584 Y2.377634
 X17.967724 Y2.355257
 X17.931180 Y2.262957
 X17.917032 Y2.243484
 X17.858683 Y2.163174
 X17.763649 Y2.084555
 X17.741870 Y2.074307
 X17.652050 Y2.032040
 X17.530896 Y2.008929
 X17.431822 Y2.015162
 X17.407800 Y2.016674
 X17.384908 Y2.024112
 X17.290498 Y2.054787
 X17.270176 Y2.067684
 X17.186361 Y2.120875
 X17.101930 Y2.210785
 X17.090334 Y2.231878
 X17.042511 Y2.318868
 X17.036525 Y2.342180
G0 Z25.0000000
 X9.549578 Y10.193987
G1 Z-7.0000000
 X9.601930 Y10.289215
 X9.676319 Y10.368431
 X9.511838 Y9.953000
 Y10.061669
 X9.538863 Y10.166924
 X9.907839 Y9.516661
 X9.790499 Y9.554787
 X9.686361 Y9.620875
 X9.601930 Y9.710785
 X9.549578 Y9.806013
 X9.542521 Y9.818828
 X9.511838 Y9.938331
 Y10.061669
 X9.542511 Y10.181133
 X9.601930 Y10.289215
 X9.686361 Y10.379125
 X9.790499 Y10.445213
 X9.893849 Y10.478793
 X9.907800 Y10.483327
 X10.030896 Y10.491071
 X10.152049 Y10.467960
 X10.263649 Y10.415445
 X10.347380 Y10.346176
 X10.358683 Y10.336826
 X10.431180 Y10.237043
 X10.476584 Y10.122366
 X10.492042 Y10.000000
 X10.476584 Y9.877634
 X10.431180 Y9.762957
 X10.358683 Y9.663174
 X10.263649 Y9.584555
 X10.152049 Y9.532040
 X10.030896 Y9.508929
 X9.907800 Y9.516673
 X9.804450 Y9.550254
 X9.676319 Y9.631569
 X9.601930 Y9.710785
 X9.542511 Y9.818867
 X9.515486 Y9.924122
G0 Z25.0000000
 X2.840137 Y17.852168
G1 Z-7.0000000
 X2.858683 Y17.836826
 X2.931180 Y17.737043
 X2.940040 Y17.714664
 X2.976584 Y17.622366
 X2.992042 Y17.500000
 X2.989025 Y17.476121
 X2.186327 Y17.879104
 X2.290498 Y17.945213
 X2.384908 Y17.975888
 X2.407800 Y17.983326
 X2.431822 Y17.984838
 X2.530896 Y17.991071
 X2.554540 Y17.986561
 X2.652049 Y17.967960
 X2.673827 Y17.957712
 X2.763648 Y17.915445
 X2.858683 Y17.836826
 X2.872831 Y17.817353
 X2.101902 Y17.789186
 X2.186361 Y17.879125
 X2.206683 Y17.892022
 X2.011838 Y17.438290
 Y17.462400
 X2.042521 Y17.318827
 X2.011838 Y17.438330
 Y17.561670
 X2.017824 Y17.584984
 X2.042511 Y17.681134
 X2.054106 Y17.702225
 X2.101930 Y17.789215
 X2.118406 Y17.806761
 X2.976598 Y17.377672
 X2.967723 Y17.355256
 X2.931203 Y17.262990
 X2.917032 Y17.243484
 X2.763686 Y17.084572
 X2.741871 Y17.074307
 X2.989025 Y17.523879
 X2.992042 Y17.500000
 X2.976584 Y17.377634
 X2.931179 Y17.262957
 X2.858683 Y17.163174
 X2.840138 Y17.147832
 X2.763649 Y17.084555
 X2.652049 Y17.032040
 X2.628406 Y17.027530
 X2.530895 Y17.008929
 X2.431822 Y17.015162
 X2.407800 Y17.016673
 X2.384910 Y17.024111
 X2.290499 Y17.054787
 X2.270177 Y17.067684
 X2.186361 Y17.120875
 X2.118405 Y17.193240
 X2.101929 Y17.210785
 X2.090334 Y17.231876
 X2.042511 Y17.318866
 X2.036526 Y17.342179
G0 Z25.0000000
 X2.652012 Y2.967977
G1 Z-7.0000000
 X2.673828 Y2.957711
 X2.186327 Y2.879103
 X2.290499 Y2.945213
 X2.407839 Y2.983339
 X2.042492 Y2.681099
 X2.101929 Y2.789215
 X2.118405 Y2.806760
 X2.186361 Y2.879125
 X2.206684 Y2.892022
 X2.858714 Y2.163200
 X2.840137 Y2.147832
 X2.384910 Y2.975889
 X2.407800 Y2.983327
 X2.431822 Y2.984838
 X2.530895 Y2.991071
 X2.554538 Y2.986561
 X2.652049 Y2.967960
 X2.763649 Y2.915445
 X2.840138 Y2.852168
 X2.858683 Y2.836826
 X2.872830 Y2.817354
 X2.931179 Y2.737043
 X2.940040 Y2.714664
 X2.976584 Y2.622366
 X2.992042 Y2.500000
 X2.989025 Y2.476121
 X2.976598 Y2.377672
 X2.967723 Y2.355256
 X2.763685 Y2.084572
 X2.741870 Y2.074306
 X2.652089 Y2.032048
 X2.628408 Y2.027530
 X2.989025 Y2.523879
 X2.992042 Y2.500000
 X2.976584 Y2.377634
 X2.931180 Y2.262957
 X2.917032 Y2.243485
 X2.858683 Y2.163174
 X2.763648 Y2.084555
 X2.652049 Y2.032040
 X2.530896 Y2.008929
 X2.431822 Y2.015162
 X2.407800 Y2.016674
 X2.384908 Y2.024112
 X2.290498 Y2.054787
 X2.270176 Y2.067684
 X2.186361 Y2.120875
 X2.101930 Y2.210785
 X2.090334 Y2.231877
 X2.042521 Y2.318827
 X2.036526 Y2.342179
 X2.011838 Y2.438290
 Y2.462400
 X2.118406 Y2.193239
 X2.101930 Y2.210785
 X2.042511 Y2.318866
 X2.011838 Y2.438330
 Y2.561670
 X2.017824 Y2.584984
 X2.042511 Y2.681134
 X2.054107 Y2.702226
G0 Z25.0000000
 X17.652013 Y17.967977
G1 Z-7.5000000
 X17.707849 Y17.941703
 X17.811166 Y17.876136
 X17.858683 Y17.836826
 X17.894931 Y17.786935
 X17.349149 Y17.964269
 X17.407800 Y17.983326
 X17.469348 Y17.987198
 X17.984313 Y17.561184
 X17.992042 Y17.500000
 X17.984313 Y17.438816
 X17.976599 Y17.377672
 X17.953882 Y17.320297
 X17.931203 Y17.262989
 X17.894931 Y17.213064
 X17.858714 Y17.163199
 X17.811167 Y17.123865
 X17.652089 Y17.032048
 X17.591472 Y17.020484
 X17.763686 Y17.084573
 X17.707850 Y17.058298
 X17.186327 Y17.879104
 X17.238430 Y17.912169
 X17.469348 Y17.012801
 X17.407800 Y17.016673
 X17.349150 Y17.035730
 X17.101902 Y17.789186
 X17.144146 Y17.834171
 X17.042491 Y17.681097
 X17.072220 Y17.735173
 X17.144145 Y17.165830
 X17.101930 Y17.210785
 X17.072220 Y17.264826
 X17.290533 Y17.054765
 X17.238430 Y17.087831
 X17.011838 Y17.438291
 Y17.500000
 X17.011828 Y17.561630
 X17.042511 Y17.681132
 X17.101930 Y17.789215
 X17.186361 Y17.879125
 X17.290498 Y17.945213
 X17.407800 Y17.983326
 X17.530896 Y17.991071
 X17.591474 Y17.979515
 X17.652050 Y17.967960
 X17.763649 Y17.915445
 X17.858683 Y17.836826
 X17.931180 Y17.737043
 X17.953882 Y17.679703
 X17.976584 Y17.622366
 X17.992042 Y17.500000
 X17.976584 Y17.377634
 X17.931180 Y17.262957
 X17.858683 Y17.163174
 X17.763650 Y17.084556
 X17.652049 Y17.032040
 X17.530895 Y17.008929
 X17.407800 Y17.016673
 X17.290499 Y17.054787
 X17.186361 Y17.120875
 X17.101930 Y17.210785
 X17.042511 Y17.318867
 X17.027175 Y17.378599
 X17.011838 Y17.438331
 Y17.561669
 X17.027175 Y17.621401
G0 Z25.0000000
 X9.907760 Y10.483324
G1 Z-7.5000000
 X10.030936 Y10.491073
 X10.476579 Y10.122406
 X10.492042 Y10.000000
 X10.476579 Y9.877594
 X10.431165 Y10.237080
 X10.476598 Y10.122328
 X10.358660 Y10.336858
 X10.431180 Y10.237043
 X10.476598 Y10.122328
 X10.152013 Y10.467977
 X10.263686 Y10.415428
 X10.476598 Y9.877672
 X10.431180 Y9.762957
 X10.358660 Y9.663142
 X9.790461 Y10.445200
 X9.907839 Y10.483339
 X10.263618 Y10.415470
 X10.358683 Y10.336826
 X10.431203 Y10.237010
 X9.686327 Y10.379103
 X9.790533 Y10.445234
 X10.030856 Y10.491079
 X10.152049 Y10.467960
 X10.263649 Y10.415445
 X10.358714 Y10.336800
 X10.476598 Y9.877672
 X10.431180 Y9.762957
 X10.358683 Y9.663174
 X10.263618 Y9.584530
 X10.152013 Y9.532023
 X9.907839 Y9.516661
 X9.790461 Y9.554800
 X9.686327 Y9.620897
 X10.152089 Y9.532048
 X10.030896 Y9.508929
 X9.907760 Y9.516676
G0 Z25.0000000
 X17.811167 Y2.876135
G1 Z-7.5000000
 X17.858714 Y2.836801
 X17.931203 Y2.262990
 X17.894931 Y2.213065
 X17.976599 Y2.377672
 X17.953882 Y2.320297
 X17.858714 Y2.163200
 X17.811166 Y2.123864
 X17.984313 Y2.561184
 X17.992042 Y2.500000
 X17.984313 Y2.438816
 X17.530856 Y2.991079
 X17.591472 Y2.979516
 X17.763685 Y2.084572
 X17.707849 Y2.058297
 X17.349150 Y2.964270
 X17.407800 Y2.983327
 X17.469348 Y2.987199
 X17.652013 Y2.967977
 X17.707850 Y2.941702
 X17.652089 Y2.032048
 X17.591474 Y2.020485
 X17.469348 Y2.012802
 X17.407800 Y2.016674
 X17.349149 Y2.035731
 X17.186327 Y2.879103
 X17.238430 Y2.912169
 X17.101902 Y2.789186
 X17.144145 Y2.834170
 X17.042492 Y2.681098
 X17.072220 Y2.735174
 X17.011828 Y2.561630
 X17.027175 Y2.621401
 X17.144146 Y2.165829
 X17.101930 Y2.210785
 X17.072220 Y2.264827
 X17.290532 Y2.054766
 X17.238430 Y2.087831
 X17.011838 Y2.438291
 Y2.561669
 X17.042511 Y2.681133
 X17.101930 Y2.789215
 X17.186361 Y2.879125
 X17.290499 Y2.945213
 X17.407800 Y2.983327
 X17.530895 Y2.991071
 X17.652049 Y2.967960
 X17.763650 Y2.915444
 X17.858683 Y2.836826
 X17.894931 Y2.786936
 X17.931180 Y2.737043
 X17.953882 Y2.679703
 X17.976584 Y2.622366
 X17.992042 Y2.500000
 X17.976584 Y2.377634
 X17.931180 Y2.262957
 X17.858683 Y2.163174
 X17.763649 Y2.084555
 X17.652050 Y2.032040
 X17.530896 Y2.008929
 X17.407800 Y2.016674
 X17.290498 Y2.054787
 X17.186361 Y2.120875
 X17.101930 Y2.210785
 X17.042511 Y2.318868
 X17.027175 Y2.378599
 X17.011838 Y2.438331
 Y2.500000
G0 Z25.0000000
 X9.542492 Y10.181098
G1 Z-7.5000000
 X9.601930 Y10.289215
 X9.686388 Y10.379154
 X9.511838 Y9.938291
 Y10.061669
 X9.542511 Y10.181133
 X9.601930 Y10.289215
 X9.686361 Y10.379125
 X9.790499 Y10.445213
 X9.907800 Y10.483327
 X10.030896 Y10.491071
 X10.152089 Y10.467952
 X9.686388 Y9.620846
 X9.601930 Y9.710785
 X9.542492 Y9.818902
 X9.511838 Y9.938331
 Y10.061669
 X9.542521 Y10.181172
 X10.263686 Y9.584572
 X10.152049 Y9.532040
 X10.030896 Y9.508929
 X9.907800 Y9.516673
 X9.790499 Y9.554787
 X9.686361 Y9.620875
 X9.601930 Y9.710785
 X9.542511 Y9.818867
 X9.511828 Y9.938370
G0 Z25.0000000
 X2.652013 Y17.967977
G1 Z-7.5000000
 X2.707848 Y17.941703
 X2.349149 Y17.964269
 X2.407800 Y17.983326
 X2.469348 Y17.987198
 X2.811166 Y17.876136
 X2.858683 Y17.836826
 X2.894931 Y17.786934
 X2.101902 Y17.789186
 X2.144145 Y17.834170
 X2.984313 Y17.561183
 X2.992042 Y17.500000
 X2.984313 Y17.438817
 X2.186327 Y17.879104
 X2.238430 Y17.912169
 X2.011828 Y17.561631
 X2.027175 Y17.621402
 X2.011838 Y17.438290
 Y17.500000
 X2.976598 Y17.377672
 X2.953882 Y17.320296
 X2.858714 Y17.163200
 X2.811166 Y17.123865
 X2.763686 Y17.084572
 X2.707849 Y17.058298
 X2.652088 Y17.032048
 X2.591472 Y17.020484
 X2.469348 Y17.012801
 X2.407800 Y17.016673
 X2.349150 Y17.035730
 X2.290533 Y17.054765
 X2.238430 Y17.087831
 X2.144144 Y17.165831
 X2.101929 Y17.210785
 X2.072221 Y17.264825
 X2.042521 Y17.318827
 X2.011838 Y17.438330
 Y17.561670
 X2.042511 Y17.681134
 X2.072220 Y17.735174
 X2.101930 Y17.789215
 X2.186361 Y17.879125
 X2.290498 Y17.945213
 X2.407800 Y17.983326
 X2.530896 Y17.991071
 X2.591474 Y17.979515
 X2.652049 Y17.967960
 X2.763648 Y17.915445
 X2.858683 Y17.836826
 X2.931180 Y17.737043
 X2.953882 Y17.679704
 X2.976584 Y17.622366
 X2.992042 Y17.500000
 X2.976584 Y17.377634
 X2.931179 Y17.262957
 X2.894931 Y17.213065
 X2.858683 Y17.163174
 X2.763649 Y17.084555
 X2.652049 Y17.032040
 X2.530895 Y17.008929
 X2.407800 Y17.016673
 X2.290499 Y17.054787
 X2.186361 Y17.120875
 X2.101929 Y17.210785
 X2.042511 Y17.318866
 X2.027175 Y17.378598
G0 Z25.0000000
 X2.811166 Y2.876135
G1 Z-7.5000000
 X2.858683 Y2.836826
 X2.894931 Y2.786935
 X2.186327 Y2.879103
 X2.238430 Y2.912169
 X2.101902 Y2.789186
 X2.144144 Y2.834169
 X2.530856 Y2.991079
 X2.591472 Y2.979516
 X2.042492 Y2.681099
 X2.072221 Y2.735175
 X2.984313 Y2.561183
 X2.992042 Y2.500000
 X2.984313 Y2.438817
 X2.931203 Y2.262990
 X2.894931 Y2.213066
 X2.976598 Y2.377672
 X2.953882 Y2.320296
 X2.858714 Y2.163200
 X2.811166 Y2.123864
 X2.763685 Y2.084572
 X2.707848 Y2.058297
 X2.652089 Y2.032048
 X2.591474 Y2.020485
 X2.290532 Y2.054766
 X2.238430 Y2.087831
 X2.469348 Y2.012802
 X2.407800 Y2.016674
 X2.349149 Y2.035731
 X2.349150 Y2.964270
 X2.407800 Y2.983327
 X2.530895 Y2.991071
 X2.652049 Y2.967960
 X2.707849 Y2.941702
 X2.763649 Y2.915445
 X2.858683 Y2.836826
 X2.931179 Y2.737043
 X2.953882 Y2.679704
 X2.976584 Y2.622366
 X2.992042 Y2.500000
 X2.976584 Y2.377634
 X2.931180 Y2.262957
 X2.858683 Y2.163174
 X2.763648 Y2.084555
 X2.652049 Y2.032040
 X2.530896 Y2.008929
 X2.407800 Y2.016674
 X2.290498 Y2.054787
 X2.186361 Y2.120875
 X2.101930 Y2.210785
 X2.072220 Y2.264826
 X2.042521 Y2.318827
 X2.027175 Y2.378598
 X2.011828 Y2.561631
 X2.027175 Y2.621402
 X2.011838 Y2.438290
 Y2.500000
 X2.144145 Y2.165830
 X2.101930 Y2.210785
 X2.042511 Y2.318866
 X2.011838 Y2.438330
 Y2.561670
 X2.042511 Y2.681134
 X2.101929 Y2.789215
 X2.186361 Y2.879125
 X2.290499 Y2.945213
 X2.407800 Y2.983327
 X2.469348 Y2.987199
G0 Z25.0000000
 X17.530857 Y17.991078
G1 Z-8.0000000
 X17.628408 Y17.972470
 X17.313389 Y17.952650
 X17.407800 Y17.983326
 X17.530896 Y17.991071
 X17.652050 Y17.967960
 X17.741870 Y17.925693
 X17.763649 Y17.915445
 X17.782195 Y17.900103
 X17.858683 Y17.836826
 X17.917032 Y17.756516
 X17.931180 Y17.737043
 X17.967724 Y17.644743
 X17.976584 Y17.622366
 X17.992042 Y17.500000
 X17.979600 Y17.401512
 X17.976599 Y17.377672
 X17.940041 Y17.285337
 X17.858714 Y17.163199
 X17.782196 Y17.099898
 X17.652089 Y17.032048
 X17.554538 Y17.013439
 X17.979600 Y17.598488
 X17.992042 Y17.500000
 X17.976584 Y17.377634
 X17.931180 Y17.262957
 X17.872830 Y17.182645
 X17.858683 Y17.163174
 X17.763650 Y17.084556
 X17.673828 Y17.042289
 X17.652049 Y17.032040
 X17.530895 Y17.008929
 X17.407800 Y17.016673
 X17.313390 Y17.047349
 X17.011828 Y17.561630
 X17.042511 Y17.681132
 X17.090334 Y17.768122
 X17.101930 Y17.789215
 X17.169885 Y17.861580
 X17.186361 Y17.879125
 X17.270176 Y17.932316
 X17.290498 Y17.945213
 X17.407800 Y17.983326
 X17.506874 Y17.989559
 X17.290533 Y17.054765
 X17.186361 Y17.120875
 X17.101930 Y17.210785
 X17.054106 Y17.297775
 X17.506874 Y17.010440
 X17.407800 Y17.016673
 X17.290499 Y17.054787
 X17.206684 Y17.107978
 X17.011838 Y17.438291
 Y17.537600
 X17.169884 Y17.138421
 X17.101930 Y17.210785
 X17.042511 Y17.318867
 X17.017824 Y17.415018
 X17.011838 Y17.438331
 Y17.561669
 X17.036525 Y17.657820
G0 Z25.0000000
 X9.907760 Y10.483324
G1 Z-8.0000000
 X10.030936 Y10.491073
 X10.431165 Y10.237080
 X10.476598 Y10.122328
 X10.492042 Y10.000000
 X10.476579 Y9.877594
 X10.358660 Y10.336858
 X10.431203 Y10.237010
 X10.476598 Y9.877672
 X10.431180 Y9.762957
 X10.358660 Y9.663142
 X10.152013 Y10.467977
 X10.263686 Y10.415428
 X10.030856 Y10.491079
 X10.152089 Y10.467952
 X9.790461 Y10.445200
 X9.907839 Y10.483339
 X10.263618 Y10.415470
 X10.358714 Y10.336800
 Y9.663200
 X10.263618 Y9.584530
 X10.152013 Y9.532023
 X10.030896 Y9.508929
 X9.907760 Y9.516676
 X9.790533 Y9.554766
 X9.686327 Y9.620897
 Y10.379103
 X9.790499 Y10.445213
 X9.907800 Y10.483327
 X10.030896 Y10.491071
 X10.152049 Y10.467960
 X10.263649 Y10.415445
 X10.358683 Y10.336826
 X10.431180 Y10.237043
 X10.476584 Y10.122366
 X10.492042 Y10.000000
 X10.476584 Y9.877634
 X10.431180 Y9.762957
 X10.358683 Y9.663174
 X10.263649 Y9.584555
 X10.152049 Y9.532040
 X10.030896 Y9.508929
 X9.907800 Y9.516673
 X9.790461 Y9.554800
G0 Z25.0000000
 X17.931203 Y2.262990
G1 Z-8.0000000
 X17.872830 Y2.182646
 X17.976599 Y2.377672
 X17.940041 Y2.285337
 X17.530856 Y2.991079
 X17.628406 Y2.972470
 X17.407760 Y2.983324
 X17.530895 Y2.991071
 X17.652049 Y2.967960
 X17.741872 Y2.925693
 X17.763650 Y2.915444
 X17.782196 Y2.900102
 X17.858683 Y2.836826
 X17.917031 Y2.756517
 X17.931180 Y2.737043
 X17.967724 Y2.644743
 X17.976584 Y2.622366
 X17.992042 Y2.500000
 X17.979600 Y2.401512
 X17.763685 Y2.084572
 X17.673827 Y2.042288
 X17.101902 Y2.789186
 X17.186361 Y2.879125
 X17.270177 Y2.932316
 X17.290499 Y2.945213
 X17.313390 Y2.952651
 X17.407800 Y2.983327
 X17.506874 Y2.989560
 X17.011828 Y2.561630
 X17.042511 Y2.681133
 X17.090334 Y2.768123
 X17.101930 Y2.789215
 X17.169884 Y2.861579
 X17.011838 Y2.438291
 Y2.537600
 X17.101949 Y2.210750
 X17.054106 Y2.297776
 X17.979600 Y2.598488
 X17.992042 Y2.500000
 X17.976584 Y2.377634
 X17.931180 Y2.262957
 X17.858683 Y2.163174
 X17.782195 Y2.099897
 X17.763649 Y2.084555
 X17.652050 Y2.032040
 X17.554540 Y2.013439
 X17.530896 Y2.008929
 X17.407800 Y2.016674
 X17.313389 Y2.047350
 X17.290532 Y2.054766
 X17.206683 Y2.107978
 X17.506874 Y2.010441
 X17.407800 Y2.016674
 X17.290498 Y2.054787
 X17.186361 Y2.120875
 X17.169885 Y2.138420
 X17.101930 Y2.210785
 X17.042511 Y2.318868
 X17.017824 Y2.415018
 X17.011838 Y2.438331
 Y2.561669
 X17.036525 Y2.657820
G0 Z25.0000000
 X9.601902 Y10.289186
G1 Z-8.0000000
 X9.686388 Y10.379154
 X9.542492 Y10.181098
 X9.601930 Y10.289215
 X9.686361 Y10.379125
 X9.790533 Y10.445234
 X9.511838 Y9.938291
 Y10.061669
 X9.542521 Y10.181172
 Y9.818828
 X9.511838 Y9.938331
 Y10.061669
 X9.542521 Y10.181172
 X9.686388 Y9.620846
 X9.601930 Y9.710785
 X9.542492 Y9.818902
 X9.790533 Y9.554766
 X9.686361 Y9.620875
 X9.601930 Y9.710785
 X9.542511 Y9.818867
 X9.511828 Y9.938370
G0 Z25.0000000
 X2.530857 Y17.991078
G1 Z-8.0000000
 X2.628408 Y17.972470
 X2.652013 Y17.967977
 X2.741870 Y17.925694
 X2.931165 Y17.737080
 X2.967723 Y17.644744
 X2.042492 Y17.681098
 X2.101930 Y17.789215
 X2.169884 Y17.861579
 X2.186361 Y17.879125
 X2.270176 Y17.932316
 X2.290498 Y17.945213
 X2.407800 Y17.983326
 X2.506874 Y17.989559
 X2.011828 Y17.561631
 X2.042511 Y17.681134
 X2.090334 Y17.768123
 X2.011838 Y17.438290
 Y17.537600
 X2.858714 Y17.163200
 X2.782195 Y17.099898
 X2.652088 Y17.032048
 X2.554538 Y17.013439
 X2.290533 Y17.054765
 X2.206684 Y17.107978
 X2.313389 Y17.952650
 X2.407800 Y17.983326
 X2.530896 Y17.991071
 X2.652049 Y17.967960
 X2.763648 Y17.915445
 X2.782194 Y17.900103
 X2.858683 Y17.836826
 X2.917032 Y17.756515
 X2.931180 Y17.737043
 X2.976584 Y17.622366
 X2.979600 Y17.598486
 X2.992042 Y17.500000
 X2.979600 Y17.401514
 X2.976584 Y17.377634
 X2.940040 Y17.285336
 X2.931179 Y17.262957
 X2.872830 Y17.182646
 X2.858683 Y17.163174
 X2.763649 Y17.084555
 X2.673828 Y17.042289
 X2.652049 Y17.032040
 X2.530895 Y17.008929
 X2.407800 Y17.016673
 X2.313390 Y17.047349
 X2.506874 Y17.010440
 X2.407800 Y17.016673
 X2.290499 Y17.054787
 X2.186361 Y17.120875
 X2.101929 Y17.210785
 X2.054107 Y17.297774
 X2.169883 Y17.138422
 X2.101929 Y17.210785
 X2.042511 Y17.318866
 X2.017824 Y17.415016
 X2.011838 Y17.438330
 Y17.561670
 X2.036526 Y17.657821
G0 Z25.0000000
 X2.931165 Y2.737080
G1 Z-8.0000000
 X2.967723 Y2.644744
 X2.530856 Y2.991079
 X2.652049 Y2.967960
 X2.741871 Y2.925693
 X2.763649 Y2.915445
 X2.858683 Y2.836826
 X2.917032 Y2.756516
 X2.407760 Y2.983324
 X2.530895 Y2.991071
 X2.628406 Y2.972470
 X2.101902 Y2.789186
 X2.186361 Y2.879125
 X2.270177 Y2.932316
 X2.290499 Y2.945213
 X2.313390 Y2.952651
 X2.407800 Y2.983327
 X2.506874 Y2.989560
 X2.931203 Y2.262990
 X2.872831 Y2.182647
 X2.782195 Y2.900102
 X2.858683 Y2.836826
 X2.931179 Y2.737043
 X2.976584 Y2.622366
 X2.979600 Y2.598486
 X2.992042 Y2.500000
 X2.979600 Y2.401514
 X2.976584 Y2.377634
 X2.940040 Y2.285336
 X2.931180 Y2.262957
 X2.858683 Y2.163174
 X2.782194 Y2.099897
 X2.763648 Y2.084555
 X2.673827 Y2.042288
 X2.652049 Y2.032040
 X2.554540 Y2.013439
 X2.530896 Y2.008929
 X2.407800 Y2.016674
 X2.313389 Y2.047350
 X2.290532 Y2.054766
 X2.206683 Y2.107978
 X2.101949 Y2.210750
 X2.054106 Y2.297775
 X2.011828 Y2.561631
 X2.036526 Y2.657821
 X2.011838 Y2.438290
 Y2.537600
 X2.506874 Y2.010441
 X2.407800 Y2.016674
 X2.290498 Y2.054787
 X2.186361 Y2.120875
 X2.169884 Y2.138421
 X2.101930 Y2.210785
 X2.042511 Y2.318866
 X2.017824 Y2.415016
 X2.011838 Y2.438330
 Y2.561670
 X2.042511 Y2.681134
 X2.090334 Y2.768124
 X2.101929 Y2.789215
 X2.169883 Y2.861578
G0 Z25.0000000
 X17.652013 Y17.967977
G1 Z-8.5000000
 X17.763649 Y17.915445
 X17.858714 Y17.836800
 X17.530857 Y17.991078
 X17.652050 Y17.967960
 X17.763685 Y17.915428
 X17.530857 Y17.991078
 X17.652089 Y17.967952
 X17.290460 Y17.945200
 X17.407800 Y17.983326
 X17.530937 Y17.991073
 X17.931165 Y17.737080
 X17.976599 Y17.622328
 X17.763618 Y17.915471
 X17.858683 Y17.836826
 X17.931203 Y17.737010
 X17.976599 Y17.622328
 X17.992042 Y17.500000
 X17.976579 Y17.377594
 X17.931165 Y17.262920
 X17.858659 Y17.163141
 X17.931203 Y17.262989
 X17.858683 Y17.163174
 X17.763619 Y17.084530
 X17.652013 Y17.032023
 X17.530856 Y17.008921
 X17.652089 Y17.032048
 X17.530856 Y17.008921
 X17.407839 Y17.016661
 X17.290461 Y17.054799
 X17.186327 Y17.879104
 X17.290532 Y17.945234
 X17.042491 Y17.681097
 X17.101930 Y17.789215
 X17.186389 Y17.879155
 X17.011828 Y17.561630
 X17.042521 Y17.681171
 X17.186388 Y17.120846
 X17.101930 Y17.210785
 X17.042492 Y17.318902
 X17.290533 Y17.054765
 X17.186327 Y17.120897
 X17.530935 Y17.008926
 X17.407800 Y17.016673
 X17.290499 Y17.054787
 X17.186327 Y17.120897
 X17.042521 Y17.318828
 X17.011828 Y17.438370
 X17.011838 Y17.561709
 Y17.438291
 Y17.561669
 X17.042511 Y17.681132
 X17.101949 Y17.789250
G0 Z25.0000000
 X9.907760 Y10.483324
G1 Z-8.5000000
 X10.030936 Y10.491073
 X10.476579 Y10.122406
 X10.492042 Y10.000000
 X10.476579 Y9.877594
 X10.431165 Y10.237080
 X10.476598 Y10.122328
 X10.358660 Y10.336858
 X10.431203 Y10.237010
 X10.358660 Y10.336858
 X10.431180 Y10.237043
 X10.476584 Y10.122366
 X10.492042 Y10.000000
 X10.476584 Y9.877634
 X10.431180 Y9.762957
 X10.358660 Y9.663142
 X10.152013 Y10.467977
 X10.263686 Y10.415428
 X10.030856 Y10.491079
 X10.152089 Y10.467952
 X9.686327 Y10.379103
 X9.790499 Y10.445213
 X9.907839 Y10.483339
 X10.030896 Y10.491071
 X10.152049 Y10.467960
 X10.263649 Y10.415445
 X10.358714 Y10.336800
 Y9.663200
 X10.263618 Y9.584530
 X10.152013 Y9.532023
 X10.476598 Y9.877672
 X10.431180 Y9.762957
 X10.358683 Y9.663174
 X10.263649 Y9.584555
 X10.152049 Y9.532040
 X10.030896 Y9.508929
 X9.907760 Y9.516676
 X9.790533 Y9.554766
 X9.686327 Y9.620897
 X9.907839 Y9.516661
 X9.790461 Y9.554800
G0 Z25.0000000
 X17.931165 Y2.737080
G1 Z-8.5000000
 X17.976599 Y2.622328
 X17.931165 Y2.737080
 X17.976599 Y2.622328
 X17.931203 Y2.262990
 X17.858659 Y2.163142
 X17.976599 Y2.377672
 X17.931165 Y2.262920
 X17.976579 Y2.622406
 X17.992042 Y2.500000
 X17.976579 Y2.377594
 X17.530856 Y2.991079
 X17.652089 Y2.967952
 X17.858714 Y2.163200
 X17.763618 Y2.084529
 X17.763619 Y2.915470
 X17.858714 Y2.836801
 X17.290461 Y2.945201
 X17.407800 Y2.983327
 X17.530935 Y2.991074
 X17.652013 Y2.967977
 X17.763650 Y2.915444
 X17.858683 Y2.836826
 X17.931203 Y2.737011
 X17.290461 Y2.945201
 X17.407800 Y2.983327
 X17.530895 Y2.991071
 X17.652049 Y2.967960
 X17.763686 Y2.915427
 X17.931203 Y2.262990
 X17.858683 Y2.163174
 X17.763649 Y2.084555
 X17.652013 Y2.032023
 X17.530857 Y2.008922
 X17.407800 Y2.016674
 X17.290460 Y2.054800
 X17.101902 Y2.789186
 X17.186361 Y2.879125
 X17.290533 Y2.945235
 X17.042492 Y2.681098
 X17.101930 Y2.789215
 X17.186388 Y2.879154
 X17.011828 Y2.561630
 X17.042511 Y2.681133
 X17.101949 Y2.789250
 X17.011838 Y2.438291
 Y2.561669
 X17.042521 Y2.681172
 X17.011838 Y2.438291
 Y2.561709
 X17.042521 Y2.318829
 X17.011828 Y2.438370
 X17.186389 Y2.120845
 X17.101930 Y2.210785
 X17.042491 Y2.318903
 X17.290532 Y2.054766
 X17.186327 Y2.120896
 X17.290532 Y2.054766
 X17.186327 Y2.120896
G0 Z25.0000000
 X9.601902 Y10.289186
G1 Z-8.5000000
 X9.686388 Y10.379154
 X9.542492 Y10.181098
 X9.601930 Y10.289215
 X9.686361 Y10.379125
 X9.790533 Y10.445234
 X9.511838 Y9.938291
 Y10.061669
 X9.542521 Y10.181172
 Y9.818828
 X9.511838 Y9.938331
 Y10.061669
 X9.542521 Y10.181172
 X10.152089 Y9.532048
 X10.030896 Y9.508929
 X9.907800 Y9.516673
 X9.790499 Y9.554787
 X9.686361 Y9.620875
 X9.601930 Y9.710785
 X9.542492 Y9.818902
 X9.686388 Y9.620846
 X9.601930 Y9.710785
 X9.542511 Y9.818867
 X9.511828 Y9.938370
G0 Z25.0000000
 X2.652013 Y17.967977
G1 Z-8.5000000
 X2.763685 Y17.915428
 X2.530857 Y17.991078
 X2.652089 Y17.967952
 X2.290460 Y17.945200
 X2.407800 Y17.983326
 X2.530937 Y17.991073
 X2.652049 Y17.967960
 X2.763648 Y17.915445
 X2.858683 Y17.836826
 X2.931203 Y17.737010
 X2.976598 Y17.622328
 X2.763617 Y17.915471
 X2.858683 Y17.836826
 X2.931180 Y17.737043
 X2.976584 Y17.622366
 X2.992042 Y17.500000
 X2.976578 Y17.377594
 X2.101902 Y17.789186
 X2.186388 Y17.879155
 X2.290532 Y17.945234
 X2.011828 Y17.561631
 X2.042511 Y17.681134
 X2.101949 Y17.789250
 X2.011838 Y17.438290
 Y17.561710
 Y17.438290
 Y17.561670
 X2.042521 Y17.681173
 X2.976578 Y17.622406
 X2.992042 Y17.500000
 X2.976584 Y17.377634
 X2.931165 Y17.262920
 X2.858659 Y17.163142
 X2.931203 Y17.262990
 X2.858683 Y17.163174
 X2.763618 Y17.084530
 X2.652012 Y17.032023
 X2.530856 Y17.008921
 X2.652088 Y17.032048
 X2.530856 Y17.008921
 X2.290533 Y17.054765
 X2.186327 Y17.120897
 X2.407839 Y17.016661
 X2.290461 Y17.054799
 X2.530935 Y17.008926
 X2.407800 Y17.016673
 X2.290499 Y17.054787
 X2.186327 Y17.120897
 X2.101929 Y17.210785
 X2.042492 Y17.318901
 X2.011828 Y17.438369
G0 Z25.0000000
 X2.652012 Y2.967977
G1 Z-8.5000000
 X2.763649 Y2.915445
 X2.858683 Y2.836826
 X2.931203 Y2.737011
 X2.976598 Y2.622328
 X2.652012 Y2.967977
 X2.763686 Y2.915428
 X2.290461 Y2.945201
 X2.407800 Y2.983327
 X2.530895 Y2.991071
 X2.652088 Y2.967952
 X2.290461 Y2.945201
 X2.407800 Y2.983327
 X2.530935 Y2.991074
 X2.101902 Y2.789186
 X2.186361 Y2.879125
 X2.290533 Y2.945235
 X2.101902 Y2.789186
 X2.186388 Y2.879154
 X2.042492 Y2.681099
 X2.101949 Y2.789250
 X2.763618 Y2.915470
 X2.858683 Y2.836826
 X2.931179 Y2.737043
 X2.976584 Y2.622366
 X2.992042 Y2.500000
 X2.976578 Y2.377594
 Y2.622406
 X2.992042 Y2.500000
 X2.976584 Y2.377634
 X2.931165 Y2.262920
 X2.858659 Y2.163142
 X2.763617 Y2.084529
 X2.652013 Y2.032023
 X2.290532 Y2.054766
 X2.186327 Y2.120896
 X2.652089 Y2.032048
 X2.530857 Y2.008922
 X2.407800 Y2.016674
 X2.290460 Y2.054800
 X2.186327 Y2.120896
 X2.101949 Y2.210750
 X2.042492 Y2.318902
 X2.011828 Y2.438369
 X2.011838 Y2.561670
 X2.042521 Y2.681173
 X2.186388 Y2.120845
 X2.101930 Y2.210785
 X2.042511 Y2.318866
 X2.011838 Y2.438330
 Y2.561710
G0 Z25.0000000
 X17.652013 Y17.967977
G1 Z-9.0000000
 X17.763685 Y17.915428
 X17.186327 Y17.879104
 X17.290498 Y17.945213
 X17.407800 Y17.983326
 X17.530937 Y17.991073
 X17.290460 Y17.945200
 X17.407800 Y17.983326
 X17.530896 Y17.991071
 X17.652089 Y17.967952
 X17.858659 Y17.836858
 X17.931203 Y17.737010
 X17.763618 Y17.915471
 X17.858683 Y17.836826
 X17.931180 Y17.737043
 X17.976599 Y17.622328
 X17.992042 Y17.500000
 X17.976579 Y17.377594
 X17.931165 Y17.262920
 X17.976579 Y17.622406
 X17.992042 Y17.500000
 X17.976584 Y17.377634
 X17.931180 Y17.262957
 X17.858659 Y17.163141
 X17.763619 Y17.084530
 X17.652013 Y17.032023
 X17.858714 Y17.163199
 X17.763650 Y17.084556
 X17.652049 Y17.032040
 X17.530856 Y17.008921
 X17.407760 Y17.016676
 X17.530935 Y17.008926
 X17.407800 Y17.016673
 X17.290461 Y17.054799
 X17.101902 Y17.789186
 X17.186361 Y17.879125
 X17.290532 Y17.945234
 X17.101902 Y17.789186
 X17.186389 Y17.879155
 X17.042491 Y17.681097
 X17.101949 Y17.789250
 X17.186388 Y17.120846
 X17.101930 Y17.210785
 X17.042492 Y17.318902
 X17.290533 Y17.054765
 X17.186327 Y17.120897
 X17.011838 Y17.438291
 Y17.561709
 X17.042521 Y17.318828
 X17.011838 Y17.438331
 Y17.561669
 X17.042521 Y17.681171
 X17.186388 Y17.120846
 X17.101930 Y17.210785
 X17.042511 Y17.318867
 X17.011828 Y17.438370
G0 Z25.0000000
 X9.907760 Y10.483324
G1 Z-9.0000000
 X10.030936 Y10.491073
 X10.476579 Y10.122406
 X10.492042 Y10.000000
 X10.476579 Y9.877594
 X10.431165 Y10.237080
 X10.476598 Y10.122328
 X10.358660 Y10.336858
 X10.431203 Y10.237010
 X10.476598 Y9.877672
 X10.431180 Y9.762957
 X10.358660 Y9.663142
 X10.152013 Y10.467977
 X10.263686 Y10.415428
 X10.030856 Y10.491079
 X10.152089 Y10.467952
 X9.686327 Y10.379103
 X9.790533 Y10.445234
 X10.263618 Y10.415470
 X10.358714 Y10.336800
 Y9.663200
 X10.263618 Y9.584530
 X10.152013 Y9.532023
 X9.790533 Y9.554766
 X9.686327 Y9.620897
 X10.152089 Y9.532048
 X10.030896 Y9.508929
 X9.907760 Y9.516676
 X9.790461 Y10.445200
 X9.907800 Y10.483327
 X10.030896 Y10.491071
 X10.152049 Y10.467960
 X10.263649 Y10.415445
 X10.358683 Y10.336826
 X10.431180 Y10.237043
 X10.476584 Y10.122366
 X10.492042 Y10.000000
 X10.476584 Y9.877634
 X10.431180 Y9.762957
 X10.358683 Y9.663174
 X10.263649 Y9.584555
 X10.152049 Y9.532040
 X10.030896 Y9.508929
 X9.907800 Y9.516673
 X9.790461 Y9.554800
G0 Z25.0000000
 X17.858659 Y2.836859
G1 Z-9.0000000
 X17.931203 Y2.737011
 X17.763619 Y2.915470
 X17.858683 Y2.836826
 X17.931180 Y2.737043
 X17.976599 Y2.622328
 X17.992042 Y2.500000
 X17.976579 Y2.377594
 X17.931165 Y2.262920
 X17.976579 Y2.622406
 X17.992042 Y2.500000
 X17.976584 Y2.377634
 X17.931180 Y2.262957
 X17.858659 Y2.163142
 X17.763618 Y2.084529
 X17.530856 Y2.991079
 X17.652089 Y2.967952
 X17.290461 Y2.945201
 X17.407800 Y2.983327
 X17.530935 Y2.991074
 X17.652013 Y2.967977
 X17.763686 Y2.915427
 X17.763685 Y2.084572
 X17.652013 Y2.032023
 X17.530857 Y2.008922
 X17.186327 Y2.879103
 X17.290533 Y2.945235
 X17.101902 Y2.789186
 X17.186388 Y2.879154
 X17.290533 Y2.945235
 X17.042492 Y2.681098
 X17.101949 Y2.789250
 X17.011838 Y2.438291
 Y2.561709
 X17.042521 Y2.318829
 X17.011838 Y2.438331
 Y2.561669
 X17.042521 Y2.681172
 X17.186389 Y2.120845
 X17.101930 Y2.210785
 X17.042491 Y2.318903
 X17.186389 Y2.120845
 X17.101930 Y2.210785
 X17.042511 Y2.318868
 X17.011828 Y2.438370
 X17.763685 Y2.084572
 X17.652050 Y2.032040
 X17.530896 Y2.008929
 X17.407800 Y2.016674
 X17.290460 Y2.054800
 X17.530937 Y2.008927
 X17.407800 Y2.016674
 X17.290498 Y2.054787
 X17.186327 Y2.120896
G0 Z25.0000000
 X9.542492 Y10.181098
G1 Z-9.0000000
 X9.601930 Y10.289215
 X9.686388 Y10.379154
 X9.511838 Y9.938291
 Y10.061669
 X9.542511 Y10.181133
 X9.601930 Y10.289215
 X9.686361 Y10.379125
 X9.790499 Y10.445213
 X9.907839 Y10.483339
 X9.686388 Y9.620846
 X9.601930 Y9.710785
 X9.542492 Y9.818902
 X9.511838 Y9.938331
 Y10.061669
 X9.542521 Y10.181172
 X9.790533 Y9.554766
 X9.686361 Y9.620875
 X9.601930 Y9.710785
 X9.542511 Y9.818867
 X9.511828 Y9.938370
G0 Z25.0000000
 X2.652013 Y17.967977
G1 Z-9.0000000
 X2.763685 Y17.915428
 X2.858683 Y17.836826
 X2.931203 Y17.737010
 X2.976598 Y17.622328
 X2.992042 Y17.500000
 X2.976578 Y17.377594
 X2.186327 Y17.879104
 X2.290532 Y17.945234
 X2.101902 Y17.789186
 X2.186361 Y17.879125
 X2.290498 Y17.945213
 X2.407800 Y17.983326
 X2.530896 Y17.991071
 X2.652089 Y17.967952
 X2.290460 Y17.945200
 X2.407800 Y17.983326
 X2.530937 Y17.991073
 X2.042492 Y17.681098
 X2.101930 Y17.789215
 X2.186388 Y17.879155
 X2.042492 Y17.681098
 X2.101949 Y17.789250
 X2.011838 Y17.438290
 Y17.561710
 X2.042521 Y17.318827
 X2.011838 Y17.438330
 Y17.561670
 X2.042521 Y17.681173
 X2.976598 Y17.377672
 X2.931165 Y17.262920
 X2.976598 Y17.377672
 X2.931179 Y17.262957
 X2.858659 Y17.163142
 X2.763618 Y17.084530
 X2.652012 Y17.032023
 X2.858714 Y17.163200
 X2.763649 Y17.084555
 X2.652049 Y17.032040
 X2.530856 Y17.008921
 X2.290533 Y17.054765
 X2.186327 Y17.120897
 X2.101929 Y17.210785
 X2.042492 Y17.318901
 X2.530935 Y17.008926
 X2.407760 Y17.016676
 X2.530935 Y17.008926
 X2.407800 Y17.016673
 X2.290461 Y17.054799
 X2.186388 Y17.120846
 X2.101929 Y17.210785
 X2.042511 Y17.318866
 X2.011828 Y17.438369
G0 Z25.0000000
 X2.931165 Y2.737080
G1 Z-9.0000000
 X2.976598 Y2.622328
 X2.763618 Y2.915470
 X2.858683 Y2.836826
 X2.931203 Y2.737011
 X2.530856 Y2.991079
 X2.652049 Y2.967960
 X2.763686 Y2.915428
 X2.530856 Y2.991079
 X2.652088 Y2.967952
 X2.186327 Y2.879103
 X2.290533 Y2.945235
 X2.407800 Y2.983327
 X2.530935 Y2.991074
 X2.186327 Y2.879103
 X2.290533 Y2.945235
 X2.042492 Y2.681099
 X2.101929 Y2.789215
 X2.186388 Y2.879154
 X2.976578 Y2.622406
 X2.992042 Y2.500000
 X2.976578 Y2.377594
 X2.931165 Y2.262920
 X2.858659 Y2.163142
 X2.763617 Y2.084529
 X2.652089 Y2.032048
 X2.530857 Y2.008922
 X2.763685 Y2.084572
 X2.652013 Y2.032023
 X2.976598 Y2.377672
 X2.931180 Y2.262957
 X2.858683 Y2.163174
 X2.763648 Y2.084555
 X2.652049 Y2.032040
 X2.530896 Y2.008929
 X2.407800 Y2.016674
 X2.290498 Y2.054787
 X2.186327 Y2.120896
 X2.530937 Y2.008927
 X2.407800 Y2.016674
 X2.290460 Y2.054800
 X2.186388 Y2.120845
 X2.101902 Y2.210814
 X2.186388 Y2.120845
 X2.101930 Y2.210785
 X2.042492 Y2.318902
 X2.011828 Y2.561631
 X2.042511 Y2.681134
 X2.101949 Y2.789250
 X2.042521 Y2.318827
 X2.011828 Y2.438369
 X2.011838 Y2.561670
 X2.042521 Y2.681173
 X2.011838 Y2.438290
 Y2.561710
G0 Z25.0000000
 X17.652013 Y17.967977
G1 Z-9.5000000
 X17.763685 Y17.915428
 X17.530857 Y17.991078
 X17.652089 Y17.967952
 X17.763649 Y17.915445
 X17.858683 Y17.836826
 X17.931203 Y17.737010
 X17.186327 Y17.879104
 X17.290532 Y17.945234
 X17.407800 Y17.983326
 X17.530937 Y17.991073
 X17.931165 Y17.737080
 X17.976599 Y17.622328
 X17.763618 Y17.915471
 X17.858683 Y17.836826
 X17.931180 Y17.737043
 X17.976599 Y17.622328
 X17.992042 Y17.500000
 X17.976579 Y17.377594
 X17.931165 Y17.262920
 X17.858683 Y17.163174
 X17.763619 Y17.084530
 X17.931203 Y17.262989
 X17.858659 Y17.163141
 X17.763686 Y17.084573
 X17.652013 Y17.032023
 X17.763686 Y17.084573
 X17.652049 Y17.032040
 X17.530856 Y17.008921
 X17.407800 Y17.016673
 X17.290461 Y17.054799
 X17.101902 Y17.789186
 X17.186361 Y17.879125
 X17.290532 Y17.945234
 X17.042491 Y17.681097
 X17.101930 Y17.789215
 X17.186389 Y17.879155
 X17.042491 Y17.681097
 X17.101949 Y17.789250
 X17.186388 Y17.120846
 X17.101930 Y17.210785
 X17.042492 Y17.318902
 X17.290533 Y17.054765
 X17.186327 Y17.120897
 X17.011838 Y17.438291
 Y17.561669
 X17.042521 Y17.681171
 Y17.318828
 X17.011838 Y17.438331
 Y17.561709
 X17.042521 Y17.318828
 X17.011828 Y17.438370
G0 Z25.0000000
 X9.907760 Y10.483324
G1 Z-9.5000000
 X10.030936 Y10.491073
 X10.358660 Y10.336858
 X10.431203 Y10.237010
 X10.476584 Y10.122366
 X10.492042 Y10.000000
 X10.476579 Y9.877594
 Y10.122406
 X10.492042 Y10.000000
 X10.476579 Y9.877594
 X10.431203 Y9.762990
 X10.358660 Y9.663142
 X10.152013 Y10.467977
 X10.263686 Y10.415428
 X10.030856 Y10.491079
 X10.152089 Y10.467952
 X9.686327 Y10.379103
 X9.790533 Y10.445234
 X10.263618 Y10.415470
 X10.358714 Y10.336800
 X9.790461 Y10.445200
 X9.907800 Y10.483327
 X10.030896 Y10.491071
 X10.152049 Y10.467960
 X10.263649 Y10.415445
 X10.358683 Y10.336826
 X10.431180 Y10.237043
 X10.476598 Y10.122328
 X10.358714 Y9.663200
 X10.263618 Y9.584530
 X10.152013 Y9.532023
 X10.030896 Y9.508929
 X9.907760 Y9.516676
 X9.790533 Y9.554766
 X9.686327 Y9.620897
G0 Z25.0000000
 X17.931165 Y2.737080
G1 Z-9.5000000
 X17.976599 Y2.622328
G0 Z25.0000000
 X10.476598 Y9.877672
G1 Z-9.5000000
 X10.431180 Y9.762957
 X10.358683 Y9.663174
 X10.263649 Y9.584555
 X10.152049 Y9.532040
 X10.030896 Y9.508929
 X9.907800 Y9.516673
 X9.790461 Y9.554800
G0 Z25.0000000
 X17.931203 Y2.262990
G1 Z-9.5000000
 X17.858659 Y2.163142
 X17.976599 Y2.377672
 X17.931165 Y2.262920
 X17.976579 Y2.622406
 X17.992042 Y2.500000
 X17.976579 Y2.377594
 X17.530856 Y2.991079
 X17.652089 Y2.967952
 X17.858714 Y2.163200
 X17.763618 Y2.084529
 X17.652013 Y2.967977
 X17.763650 Y2.915444
 X17.858683 Y2.836826
 X17.931180 Y2.737043
 X17.976599 Y2.622328
 X17.763619 Y2.915470
 X17.858683 Y2.836826
 X17.931203 Y2.737010
 X17.290461 Y2.945201
 X17.407839 Y2.983339
 X17.652013 Y2.967977
 X17.763686 Y2.915427
 X17.858714 Y2.163200
 X17.763649 Y2.084555
 X17.652013 Y2.032023
 X17.530857 Y2.008922
 X17.652089 Y2.032048
 X17.530857 Y2.008922
 X17.407800 Y2.016674
 X17.290460 Y2.054800
 X17.186327 Y2.879103
 X17.290499 Y2.945213
 X17.407800 Y2.983327
 X17.530935 Y2.991074
 X17.186327 Y2.879103
 X17.290533 Y2.945235
 X17.042492 Y2.681098
 X17.101930 Y2.789215
 X17.186388 Y2.879154
 X17.042492 Y2.681098
 X17.101949 Y2.789250
 X17.011838 Y2.438291
 Y2.561669
 X17.042521 Y2.681172
 Y2.318829
 X17.011838 Y2.438331
 Y2.561709
 X17.042521 Y2.318829
 X17.011828 Y2.438370
 X17.186389 Y2.120845
 X17.101902 Y2.210814
 X17.186389 Y2.120845
 X17.101930 Y2.210785
 X17.042491 Y2.318903
 X17.290532 Y2.054766
 X17.186327 Y2.120896
G0 Z25.0000000
 X9.542492 Y10.181098
G1 Z-9.5000000
 X9.601930 Y10.289215
 X9.686388 Y10.379154
 X9.511838 Y9.938291
 Y10.061669
 X9.542511 Y10.181133
 X9.601930 Y10.289215
 X9.686361 Y10.379125
 X9.790499 Y10.445213
 X9.907839 Y10.483339
 X9.790533 Y9.554766
 X9.686361 Y9.620875
 X9.601930 Y9.710785
 X9.542492 Y9.818902
 X9.511838 Y9.938331
 Y10.061669
 X9.542521 Y10.181172
 X9.686388 Y9.620846
 X9.601930 Y9.710785
 X9.542511 Y9.818867
 X9.511828 Y9.938370
G0 Z25.0000000
 X2.652013 Y17.967977
G1 Z-9.5000000
 X2.763685 Y17.915428
 X2.530857 Y17.991078
 X2.652089 Y17.967952
 X2.290460 Y17.945200
 X2.407800 Y17.983326
 X2.530937 Y17.991073
 X2.186327 Y17.879104
 X2.290532 Y17.945234
 X2.763617 Y17.915471
 X2.858683 Y17.836826
 X2.931203 Y17.737010
 X2.763617 Y17.915471
 X2.858683 Y17.836826
 X2.931180 Y17.737043
 X2.976598 Y17.622328
 X2.992042 Y17.500000
 X2.976578 Y17.377594
 X2.042492 Y17.681098
 X2.101949 Y17.789250
 X2.186361 Y17.879125
 X2.290532 Y17.945234
 X2.101902 Y17.789186
 X2.186388 Y17.879155
 X2.011838 Y17.438290
 Y17.561670
 X2.042521 Y17.681173
 Y17.318827
 X2.011838 Y17.438330
 Y17.561710
 X2.976598 Y17.377672
 X2.931165 Y17.262920
 X2.858683 Y17.163174
 X2.763618 Y17.084530
 X2.976578 Y17.622406
 X2.992042 Y17.500000
 X2.976584 Y17.377634
 X2.931179 Y17.262957
 X2.858659 Y17.163142
 X2.763686 Y17.084572
 X2.652012 Y17.032023
 X2.763686 Y17.084572
 X2.652049 Y17.032040
 X2.530856 Y17.008921
 X2.407800 Y17.016673
 X2.290461 Y17.054799
 X2.186327 Y17.120897
 X2.101929 Y17.210785
 X2.042492 Y17.318901
 X2.011828 Y17.438369
G0 Z25.0000000
 X2.652012 Y2.967977
G1 Z-9.5000000
 X2.763686 Y2.915428
 X2.652012 Y2.967977
 X2.763686 Y2.915428
 X2.858683 Y2.836826
 X2.931203 Y2.737011
 X2.976598 Y2.622328
 X2.186327 Y2.879103
 X2.290499 Y2.945213
 X2.407839 Y2.983339
 X2.530856 Y2.991079
 X2.652088 Y2.967952
 X2.290461 Y2.945201
 X2.407800 Y2.983327
 X2.530935 Y2.991074
 X2.186327 Y2.879103
 X2.290533 Y2.945235
 X2.042492 Y2.681099
 X2.101929 Y2.789215
 X2.186388 Y2.879154
 X2.042492 Y2.681099
 X2.101949 Y2.789250
 X2.976578 Y2.622406
 X2.992042 Y2.500000
 X2.976578 Y2.377594
 X2.931165 Y2.262920
 X2.858714 Y2.163200
 X2.763617 Y2.084529
 X2.976578 Y2.622406
 X2.992042 Y2.500000
 X2.976584 Y2.377634
 X2.931180 Y2.262957
 X2.858659 Y2.163142
 X2.763685 Y2.084572
 X2.652013 Y2.032023
 X2.530857 Y2.008922
 X2.858714 Y2.163200
 X2.763648 Y2.084555
 X2.652049 Y2.032040
 X2.530857 Y2.008922
 X2.290532 Y2.054766
 X2.186327 Y2.120896
 X2.530937 Y2.008927
 X2.407800 Y2.016674
 X2.290460 Y2.054800
 X2.186388 Y2.120845
 X2.101930 Y2.210785
 X2.042492 Y2.318902
 X2.011828 Y2.438369
 X2.011838 Y2.561710
 X2.186388 Y2.120845
 X2.101930 Y2.210785
 X2.042511 Y2.318866
 X2.011838 Y2.438330
 Y2.561670
 X2.042521 Y2.681173
G0 Z25.0000000
 X17.763649 Y17.915445
G1 Z-10.0000000
 X17.858683 Y17.836826
 X17.931180 Y17.737043
 X17.976584 Y17.622366
 X17.992042 Y17.500000
 X17.976584 Y17.377634
 X17.931180 Y17.262957
 X17.858683 Y17.163174
 X17.763650 Y17.084556
 X17.652049 Y17.032040
 X17.530895 Y17.008929
 X17.407800 Y17.016673
 X17.290499 Y17.054787
 X17.186361 Y17.120875
 X17.101930 Y17.210785
 X17.042511 Y17.318867
 X17.011838 Y17.438331
 Y17.561669
 X17.042511 Y17.681132
 X17.101930 Y17.789215
 X17.186361 Y17.879125
 X17.290498 Y17.945213
 X17.407800 Y17.983326
 X17.530896 Y17.991071
 X17.652050 Y17.967960
 X17.763649 Y17.915445
G0 Z25.0000000
 X17.931180 Y2.737043
G1 Z-10.0000000
 X17.976584 Y2.622366
 X17.992042 Y2.500000
 X17.976584 Y2.377634
 X17.931180 Y2.262957
 X17.858683 Y2.163174
 X17.763649 Y2.084555
 X17.652050 Y2.032040
 X17.530896 Y2.008929
 X17.407800 Y2.016674
 X17.290498 Y2.054787
 X17.186361 Y2.120875
 X17.101930 Y2.210785
 X17.042511 Y2.318868
 X17.011838 Y2.438331
 Y2.561669
 X17.042511 Y2.681133
 X17.101930 Y2.789215
 X17.186361 Y2.879125
 X17.290499 Y2.945213
 X17.407800 Y2.983327
 X17.530895 Y2.991071
 X17.652049 Y2.967960
 X17.763650 Y2.915444
 X17.858683 Y2.836826
 X17.931180 Y2.737043
G0 Z25.0000000
 X10.492042 Y10.000000
G1 Z-10.0000000
 X10.476584 Y9.877634
 X10.431180 Y9.762957
 X10.358683 Y9.663174
 X10.263649 Y9.584555
 X10.152049 Y9.532040
 X10.030896 Y9.508929
 X9.907800 Y9.516673
 X9.790499 Y9.554787
 X9.686361 Y9.620875
 X9.601930 Y9.710785
 X9.542511 Y9.818867
 X9.511838 Y9.938331
 Y10.061669
 X9.542511 Y10.181133
 X9.601930 Y10.289215
 X9.686361 Y10.379125
 X9.790499 Y10.445213
 X9.907800 Y10.483327
 X10.030896 Y10.491071
 X10.152049 Y10.467960
 X10.263649 Y10.415445
 X10.358683 Y10.336826
 X10.431180 Y10.237043
 X10.476584 Y10.122366
 X10.492042 Y10.000000
G0 Z25.0000000
 X2.763648 Y17.915445
G1 Z-10.0000000
 X2.858683 Y17.836826
 X2.931180 Y17.737043
 X2.976584 Y17.622366
 X2.992042 Y17.500000
 X2.976584 Y17.377634
 X2.931179 Y17.262957
 X2.858683 Y17.163174
 X2.763649 Y17.084555
 X2.652049 Y17.032040
 X2.530895 Y17.008929
 X2.407800 Y17.016673
 X2.290499 Y17.054787
 X2.186361 Y17.120875
 X2.101929 Y17.210785
 X2.042511 Y17.318866
 X2.011838 Y17.438330
 Y17.561670
 X2.042511 Y17.681134
 X2.101930 Y17.789215
 X2.186361 Y17.879125
 X2.290498 Y17.945213
 X2.407800 Y17.983326
 X2.530896 Y17.991071
 X2.652049 Y17.967960
 X2.763648 Y17.915445
G0 Z25.0000000
 X2.858683 Y2.836826
G1 Z-10.0000000
 X2.931179 Y2.737043
 X2.976584 Y2.622366
 X2.992042 Y2.500000
 X2.976584 Y2.377634
 X2.931180 Y2.262957
 X2.858683 Y2.163174
 X2.763648 Y2.084555
 X2.652049 Y2.032040
 X2.530896 Y2.008929
 X2.407800 Y2.016674
 X2.290498 Y2.054787
 X2.186361 Y2.120875
 X2.101930 Y2.210785
 X2.042511 Y2.318866
 X2.011838 Y2.438330
 Y2.561670
 X2.042511 Y2.681134
 X2.101929 Y2.789215
 X2.186361 Y2.879125
 X2.290499 Y2.945213
 X2.407800 Y2.983327
 X2.530895 Y2.991071
 X2.652049 Y2.967960
 X2.763649 Y2.915445
 X2.858683 Y2.836826
G0 Z25.0000000
M5 (stop spindle)
G04 P3 (wait for 3 seconds)
F200.00000
S1000.00000
;PYCAM_TOOLPATH_SETTINGS: START
;[Bounds]
;maxz = 0.0
;maxx = 19.0
;maxy = 19.0
;minx = 1.0
;miny = 1.0
;minz = -10.0
;
;[Tool]
;torus_radius = 0.25
;speed = 1000.0
;shape = CylindricalCutter
;tool_radius = 1.0
;feedrate = 200.0
;
;[Process]
;engrave_offset = 0.0
;step_down = 3.0
;generator = DropCutter
;postprocessor = PathAccumulator
;milling_style = ignore
;material_allowance = 0.0
;pocketing_type = none
;path_direction = x
;
;PYCAM_TOOLPATH_SETTINGS: END
G0 Z25.0000000
M3 (start spindle)
G04 P3 (wait for 3 seconds)
 X1.000000 Y1.000000
G1 Z-5.0000000
 X19.000000
 Y1.197802
 X1.000000
 Y1.395604
 X19.000000
 Y1.593407
 X1.000000
 Y1.791209
 X19.000000
 Y1.989011
 X1.000000
 Y2.186813
 X2.124023
 X2.124512 Z-10.0000000
 X2.875000
 X2.882812 Z-5.0000000
 X17.124023
 X17.124512 Z-10.0000000
 X17.875000
 X17.882812 Z-5.0000000
 X19.000000
 Y2.384615
 X17.977539
 X17.977051 Z-10.0000000
 X17.031250
 X17.023438 Z-5.0000000
 X2.977539
 X2.977051 Z-10.0000000
 X2.031250
 X2.023438 Z-5.0000000
 X1.000000
 Y2.582418
 X2.015625
 X2.019531 Z-10.0000000
 X2.980469
 X2.982422 Z-5.0000000
 X17.015625
 X17.019531 Z-10.0000000
 X17.980469
 X17.982422 Z-5.0000000
 X19.000000
 Y2.780220
 X17.906250
 X17.898438 Z-10.0000000
 X17.097656
 X17.095703 Z-5.0000000
 X2.906250
 X2.898438 Z-10.0000000
 X2.097656
 X2.095703 Z-5.0000000
 X1.000000
 Y2.978022
 X2.390625
 X2.394531 Z-10.0000000
 X2.593750
 X2.601562 Z-5.0000000
 X17.390625
 X17.394531 Z-10.0000000
 X17.593750
 X17.601562 Z-5.0000000
 X19.000000
 Y3.175824
 X1.000000
 Y3.373626
 X19.000000
 Y3.571429
 X1.000000
 Y3.769231
 X19.000000
 Y3.967033
 X1.000000
 Y4.164835
 X4.449219
 X4.451172 Z0E-7
 X15.546875
 X15.550781 Z-5.0000000
 X19.000000
 Y4.362637
 X15.773438
 X15.769531 Z0E-7
 X4.230469
 X4.228516 Z-5.0000000
 X1.000000
 Y4.560440
 X4.101562
 X4.105469 Z0E-7
 X15.898193
 X15.898315 Z-5.0000000
 X19.000000
 Y4.758242
 X15.970703
 X15.969727 Z0E-7
 X4.031250
 X4.023438 Z-5.0000000
 X1.000000
 Y4.956044
 X4.000000
 X4.003906 Z0E-7
 X15.999023
 X15.999512 Z-5.0000000
 X19.000000
 Y5.153846
 X16.000000
 X15.996094 Z0E-7
 X4.000000
 Z-5.0000000
 X1.000000
 Y5.351648
 X4.000000
 X4.003906 Z0E-7
 X16.000000
 Z-5.0000000
 X19.000000
 Y5.549451
 X16.000000
 X15.996094 Z0E-7
 X4.000000
 Z-5.0000000
 X1.000000
 Y5.747253
 X4.000000
 X4.003906 Z0E-7
 X16.000000
 Z-5.0000000
 X19.000000
 Y5.945055
 X16.000000
 X15.996094 Z0E-7
 X4.000000
 Z-5.0000000
 X1.000000
 Y6.142857
 X4.000000
 X4.003906 Z0E-7
 X16.000000
 Z-5.0000000
 X19.000000
 Y6.340659
 X16.000000
 X15.996094 Z0E-7
 X4.000000
 Z-5.0000000
 X1.000000
 Y6.538462
 X4.000000
 X4.003906 Z0E-7
 X16.000000
 Z-5.0000000
 X19.000000
 Y6.736264
 X16.000000
 X15.996094 Z0E-7
 X4.000000
 Z-5.0000000
 X1.000000
 Y6.934066
 X4.000000
 X4.003906 Z0E-7
 X16.000000
 Z-5.0000000
 X19.000000
 Y7.131868
 X16.000000
 X15.996094 Z0E-7
 X4.000000
 Z-5.0000000
 X1.000000
 Y7.329670
 X4.000000
 X4.003906 Z0E-7
 X16.000000
 Z-5.0000000
 X19.000000
 Y7.527473
 X16.000000
 X15.996094 Z0E-7
 X4.000000
 Z-5.0000000
 X1.000000
 Y7.725275
 X4.000000
 X4.003906 Z0E-7
 X16.000000
 Z-5.0000000
 X19.000000
 Y7.923077
 X16.000000
 X15.996094 Z0E-7
 X4.000000
 Z-5.0000000
 X1.000000
 Y8.120879
 X4.000000
 X4.003906 Z0E-7
 X9.326172
 X9.327148 Z-2.0000000
 X10.671875
 X10.675781 Z0E-7
 X16.000000
 Z-5.0000000
 X19.000000
 Y8.318681
 X16.000000
 X15.996094 Z0E-7
 X11.078125
 X11.074219 Z-2.0000000
 X8.923828
 X8.922852 Z0E-7
 X4.000000
 Z-5.0000000
 X1.000000
 Y8.516484
 X4.000000
 X4.003906 Z0E-7
 X8.664062
 X8.666016 Z-2.0000000
 X11.335693
 X11.335815 Z0E-7
 X16.000000
 Z-5.0000000
 X19.000000
 Y8.714286
 X16.000000
 X15.996094 Z0E-7
 X11.527344
 X11.525391 Z-2.0000000
 X8.474609
 X8.473633 Z0E-7
 X4.000000
 Z-5.0000000
 X1.000000
 Y8.912088
 X4.000000
 X4.003906 Z0E-7
 X8.326172
 X8.327148 Z-2.0000000
 X11.671875
 X11.675781 Z0E-7
 X16.000000
 Z-5.0000000
 X19.000000
 Y9.109890
 X16.000000
 X15.996094 Z0E-7
 X11.787109
 X11.786133 Z-2.0000000
 X8.214844
 X8.212891 Z0E-7
 X4.000000
 Z-5.0000000
 X1.000000
 Y9.307692
 X4.000000
 X4.003906 Z0E-7
 X8.126953
 X8.127930 Z-2.0000000
 X11.871094
 X11.873047 Z0E-7
 X16.000000
 Z-5.0000000
 X19.000000
 Y9.505495
 X16.000000
 X15.996094 Z0E-7
 X11.933838
 X11.933716 Z-2.0000000
 X8.066406
 X8.064453 Z0E-7
 X4.000000
 Z-5.0000000
 X1.000000
 Y9.703297
 X4.000000
 X4.003906 Z0E-7
 X8.026367
 X8.026855 Z-2.0000000
 X9.608887
 X9.609131 Z-10.0000000
 X10.386719
 X10.388672 Z-2.0000000
 X11.972656
 X11.974609 Z0E-7
 X16.000000
 Z-5.0000000
 X19.000000
 Y9.901099
 X16.000000
 X15.996094 Z0E-7
 X11.994141
 X11.993164 Z-2.0000000
 X10.484375
 X10.476562 Z-10.0000000
 X9.523438
 X9.519531 Z-2.0000000
 X8.007812
 X8.005859 Z0E-7
 X4.000000
 Z-5.0000000
 X1.000000
 Y10.098901
 X4.000000
 X4.003906 Z0E-7
 X8.005859
 X8.006836 Z-2.0000000
 X9.515625
 X9.523438 Z-10.0000000
 X10.476562
 X10.480469 Z-2.0000000
 X11.992188
 X11.994141 Z0E-7
 X16.000000
 Z-5.0000000
 X19.000000
 Y10.296703
 X16.000000
 X15.996094 Z0E-7
 X11.973633
 X11.973145 Z-2.0000000
 X10.390625
 X10.382812 Z-10.0000000
 X9.609375
 X9.601562 Z-2.0000000
 X8.027344
 X8.025391 Z0E-7
 X4.000000
 Z-5.0000000
 X1.000000
 Y10.494505
 X4.000000
 X4.003906 Z0E-7
 X8.066162
 X8.066284 Z-2.0000000
 X11.933594
 X11.935547 Z0E-7
 X16.000000
 Z-5.0000000
 X19.000000
 Y10.692308
 X16.000000
 X15.996094 Z0E-7
 X11.873047
 X11.872070 Z-2.0000000
 X8.128906
 X8.126953 Z0E-7
 X4.000000
 Z-5.0000000
 X1.000000
 Y10.890110
 X4.000000
 X4.003906 Z0E-7
 X8.212891
 X8.213867 Z-2.0000000
 X11.785156
 X11.787109 Z0E-7
 X16.000000
 Z-5.0000000
 X19.000000
 Y11.087912
 X16.000000
 X15.996094 Z0E-7
 X11.673828
 X11.672852 Z-2.0000000
 X8.328125
 X8.324219 Z0E-7
 X4.000000
 Z-5.0000000
 X1.000000
 Y11.285714
 X4.000000
 X4.003906 Z0E-7
 X8.472656
 X8.474609 Z-2.0000000
 X11.525391
 X11.526367 Z0E-7
 X16.000000
 Z-5.0000000
 X19.000000
 Y11.483516
 X16.000000
 X15.996094 Z0E-7
 X11.335938
 X11.333984 Z-2.0000000
 X8.664307
 X8.664185 Z0E-7
 X4.000000
 Z-5.0000000
 X1.000000
 Y11.681319
 X4.000000
 X4.003906 Z0E-7
 X8.921875
 X8.925781 Z-2.0000000
 X11.076172
 X11.077148 Z0E-7
 X16.000000
 Z-5.0000000
 X19.000000
 Y11.879121
 X16.000000
 X15.996094 Z0E-7
 X10.673828
 X10.672852 Z-2.0000000
 X9.328125
 X9.324219 Z0E-7
 X4.000000
 Z-5.0000000
 X1.000000
 Y12.076923
 X4.000000
 X4.003906 Z0E-7
 X16.000000
 Z-5.0000000
 X19.000000
 Y12.274725
 X16.000000
 X15.996094 Z0E-7
 X4.000000
 Z-5.0000000
 X1.000000
 Y12.472527
 X4.000000
 X4.003906 Z0E-7
 X16.000000
 Z-5.0000000
 X19.000000
 Y12.670330
 X16.000000
 X15.996094 Z0E-7
 X4.000000
 Z-5.0000000
 X1.000000
 Y12.868132
 X4.000000
 X4.003906 Z0E-7
 X16.000000
 Z-5.0000000
 X19.000000
 Y13.065934
 X16.000000
 X15.996094 Z0E-7
 X4.000000
 Z-5.0000000
 X1.000000
 Y13.263736
 X4.000000
 X4.003906 Z0E-7
 X16.000000
 Z-5.0000000
 X19.000000
 Y13.461538
 X16.000000
 X15.996094 Z0E-7
 X4.000000
 Z-5.0000000
 X1.000000
 Y13.659341
 X4.000000
 X4.003906 Z0E-7
 X16.000000
 Z-5.0000000
 X19.000000
 Y13.857143
 X16.000000
 X15.996094 Z0E-7
 X4.000000
 Z-5.0000000
 X1.000000
 Y14.054945
 X4.000000
 X4.003906 Z0E-7
 X16.000000
 Z-5.0000000
 X19.000000
 Y14.252747
 X16.000000
 X15.996094 Z0E-7
 X4.000000
 Z-5.0000000
 X1.000000
 Y14.450549
 X4.000000
 X4.003906 Z0E-7
 X16.000000
 Z-5.0000000
 X19.000000
 Y14.648352
 X16.000000
 X15.996094 Z0E-7
 X4.000000
 Z-5.0000000
 X1.000000
 Y14.846154
 X4.000000
 X4.003906 Z0E-7
 X16.000000
 Z-5.0000000
 X19.000000
 Y15.043956
 X16.000000
 X15.996094 Z0E-7
 X4.000977
 X4.000488 Z-5.0000000
 X1.000000
 Y15.241758
 X4.029297
 X4.030273 Z0E-7
 X15.968750
 X15.976562 Z-5.0000000
 X19.000000
 Y15.439560
 X15.898438
 X15.894531 Z0E-7
 X4.101807
 X4.101685 Z-5.0000000
 X1.000000
 Y15.637363
 X4.226562
 X4.230469 Z0E-7
 X15.769531
 X15.771484 Z-5.0000000
 X19.000000
 Y15.835165
 X15.550781
 X15.548828 Z0E-7
 X4.453125
 X4.449219 Z-5.0000000
 X1.000000
 Y16.032967
 X19.000000
 Y16.230769
 X1.000000
 Y16.428571
 X19.000000
 Y16.626374
 X1.000000
 Y16.824176
 X19.000000
 Y17.021978
 X17.601562
 X17.597656 Z-10.0000000
 X17.391602
 X17.391113 Z-5.0000000
 X2.601562
 X2.597656 Z-10.0000000
 X2.391602
 X2.391113 Z-5.0000000
 X1.000000
 Y17.219780
 X2.093750
 X2.101562 Z-10.0000000
 X2.898438
 X2.902344 Z-5.0000000
 X17.093750
 X17.101562 Z-10.0000000
 X17.898438
 X17.902344 Z-5.0000000
 X19.000000
 Y17.417582
 X17.984375
 X17.980469 Z-10.0000000
 X17.017578
 X17.016602 Z-5.0000000
 X2.984375
 X2.980469 Z-10.0000000
 X2.017578
 X2.016602 Z-5.0000000
 X1.000000
 Y17.615385
 X2.023438
 X2.027344 Z-10.0000000
 X2.976562
 X2.980469 Z-5.0000000
 X17.023438
 X17.027344 Z-10.0000000
 X17.976562
 X17.980469 Z-5.0000000
 X19.000000
 Y17.813187
 X17.875977
 X17.875488 Z-10.0000000
 X17.125000
 X17.117188 Z-5.0000000
 X2.875977
 X2.875488 Z-10.0000000
 X2.125000
 X2.117188 Z-5.0000000
 X1.000000
 Y18.010989
 X19.000000
 Y18.208791
 X1.000000
 Y18.406593
 X19.000000
 Y18.604396
 X1.000000
 Y18.802198
 X19.000000
 Y19.000000
 X1.000000
G0 Z25.0000000
M5 (stop spindle)
G04 P3 (wait for 3 seconds)
G0 Z25.0000000
M2 (end program)
